!!!!SEGMENT: pl-cz--iii-115--001_dankowski-adalbert--missa-es-kyrie.krn
!!!cenid: 18xx:822
!!!COM: Dankowski, Adalbert
!!!COM-rismID: pe30000793
!!!CDT: ~1760-~1836
!!!CNT: Polish
!!!OPR: Missa Es
!!!OTL: Kyrie
!!!OMV: 001
!!!PDT: 1802
!!!AGN: Sacred; Vespers
!!!SMS-siglum: PL-CZ
!!!SMS-shelfmark: III-115
!!!SMS-shelfwork: 001-001 M
!!!SMS-variant:
!!!SMS-altvar:
!!!NIFC-rismSourceID: 300000112
!!!NIFC-rismChildID: 300000112
!!!NIFC-islandoraID: pl-cz:34553
!!!URL-pdf-islandora: https://repozytorium.nifc.pl/islandora/object/pl-cz%3A34553/datastream/PDF/view
!!!URL-scan: https://polish.musicsources.pl/pl/lokalizacje/galeria/rekopisy/6832/1 @EN{Scan on Polish Music Sources Website} @PL{Skany w portalu Dziedzictwo Muzyki Polskiej w otwartym dostępie}
!!!ONB-nifc: UWAGA: części Mszy: Kyrie, Gloria, Credo, Sanctus, Benedictus, Agnus Dei. Uwaga: brak partii cor 1 i 2
!!!AIN: 1 alto 1 bass 2 clars 1 organ 1 soprn 1 tenor 2 violn
!!!key:
**kern	**fba	**dynam	**kern	**dynam	**kern	**dynam	**kern	**text	**kern	**text	**kern	**text	**kern	**text	**kern	**kern
*part9	*	*part9	*part8	*part8	*part7	*part7	*part6	*part6	*part5	*part5	*part4	*part4	*part3	*part3	*part2	*part1
*staff9	*	*	*staff8	*	*staff7	*	*staff6	*staff6	*staff5	*staff5	*staff4	*staff4	*staff3	*staff3	*staff2	*staff1
*I"Organo	*	*	*I"Violino Secundo.	*	*I"Violino Primo.	*	*I"Basso	*	*I"Tenore	*	*I"Alto	*	*I"Canto	*	*I"Clarinetto Secundo in B	*I"Clarinetto Primo in B
*I'org	*	*	*I'vl 2	*	*I'vl 1	*	*I'B	*	*I'T	*	*I'A	*	*I'S	*	*I'cl 2	*I'cl 1
*Iorgan	*	*	*Ivioln	*	*Ivioln	*	*Ibass	*	*Itenor	*	*Ialto	*	*Isoprn	*	*Iclars	*Iclars
*ICklav	*	*	*ICstr	*	*ICstr	*	*ICvox	*	*ICvox	*	*ICvox	*	*ICvox	*	*ICww	*ICww
*IGcont	*	*	*	*	*	*	*IGcoro	*	*IGcoro	*	*IGcoro	*	*IGcoro	*	*	*
*clefF4	*	*	*clefG2	*	*clefG2	*	*clefF4	*	*clefC4	*	*clefC3	*	*clefC1	*	*clefG2	*clefG2
*	*	*	*	*	*	*	*	*	*	*	*	*	*	*	*ITrd1c2	*ITrd1c2
*k[b-e-a-]	*	*	*k[b-e-a-]	*	*k[b-e-a-]	*	*k[b-e-a-]	*	*k[b-e-a-]	*	*k[b-e-a-]	*	*k[b-e-a-]	*	*k[b-e-a-]	*k[b-e-a-]
*E-:	*	*	*E-:	*	*E-:	*	*E-:	*	*E-:	*	*E-:	*	*E-:	*	*E-:	*E-:
*M4/4	*	*	*M4/4	*	*M4/4	*	*M4/4	*	*M4/4	*	*M4/4	*	*M4/4	*	*M4/4	*M4/4
*met(c)	*	*	*met(c)	*	*met(c)	*	*met(c)	*	*met(c)	*	*met(c)	*	*met(c)	*	*met(c)	*met(c)
=1	=1	=1	=1	=1	=1	=1	=1	=1	=1	=1	=1	=1	=1	=1	=1	=1
!LO:TX:t=P:problem= kolejnośc znaków [E- BB- AA-]	!	!	!	!	!	!	!	!	!	!	!	!	!LO:TX:t=P:problem=źle i niejednoznacznie podpisany tekst w źródle	!	!	!
!LO:TX:a:i:t=Adagio	!	!	!	!	!	!	!LO:TX:t=P:problem=źle i niejednoznacznie podpisany tekst w źródle	!	!LO:TX:t=P:problem=źle i niejednoznacznie podpisany tekst w źródle	!	!LO:TX:t=P:problem=źle i niejednoznacznie podpisany tekst w źródle	!	!LO:TX:t=P:problem=kolejnośc znaków [a- b- e-]	!	!	!
!LO:TX:a:i:t=Solo	!	!	!	!	!	!	!LO:TX:a:i:t=Adagio	!	!LO:TX:a:i:t=Adagio	!	!LO:TX:a:i:t=Adagio	!	!LO:TX:a:i:t=Adagio	!	!LO:TX:a:t=1.	!
!	!	!	!LO:TX:a:i:t=Adagio	!	!LO:TX:a:t=Adagio.	!	!LO:TX:a:t=7.	!	!LO:TX:a:t=7.	!	!LO:TX:a:t=7.	!	!LO:TX:a:t=4.	!	!LO:TX:a:i:t=Adagio	!LO:TX:a:i:t=Adagio
8r	.	.	8r	.	8ee-\	.	00r	.	00r	.	00r	.	00r	.	1r	1r
!LO:TX:t=P:mixedbeam:problem	!	!	!	!	!	!	!	!	!	!	!	!	!	!	!	!
8E-\L	.	.	8g/L 8B-/	.	4ee-\	.	.	.	.	.	.	.	.	.	.	.
8EE-/J	.	.	8g/J 8B-/	.	.	.	.	.	.	.	.	.	.	.	.	.
8r	.	.	8r	.	16bb-\LL	.	.	.	.	.	.	.	.	.	.	.
.	.	.	.	.	16gg\JJ	.	.	.	.	.	.	.	.	.	.	.
8r	.	.	8r	.	16ff\LL	.	.	.	.	.	.	.	.	.	.	.
.	.	.	.	.	16ee-\JJ	.	.	.	.	.	.	.	.	.	.	.
!LO:TX:t=P:problem=mixedbeam	!	!	!	!	!	!	!	!	!	!	!	!	!	!	!	!
8E-\L	.	.	8g/L 8B-/	.	4ee-\	.	.	.	.	.	.	.	.	.	.	.
8EE-/J	.	.	8g/J 8B-/	.	.	.	.	.	.	.	.	.	.	.	.	.
8r	.	.	8r	.	(32ee-\LLL	.	.	.	.	.	.	.	.	.	.	.
.	.	.	.	.	32ff\	.	.	.	.	.	.	.	.	.	.	.
.	.	.	.	.	32ee-\	.	.	.	.	.	.	.	.	.	.	.
.	.	.	.	.	32dd-X\JJJ)	.	.	.	.	.	.	.	.	.	.	.
=2	=2	=2	=2	=2	=2	=2	=2	=2	=2	=2	=2	=2	=2	=2	=2	=2
8r	.	.	8r	.	16dd\LL	.	.	.	.	.	.	.	.	.	2r	2r
.	.	.	.	.	16cc\J	.	.	.	.	.	.	.	.	.	.	.
!LO:TX:t=P:problem=mixedbeam	!	!	!	!	!	!	!	!	!	!	!	!	!	!	!	!
8E-\L	6 4	.	8a-/L	.	8.cc\J	.	.	.	.	.	.	.	.	.	.	.
8EE-/J	.	.	8b-/J	.	.	.	.	.	.	.	.	.	.	.	.	.
.	.	.	.	.	32dd\LLL	.	.	.	.	.	.	.	.	.	.	.
.	.	.	.	.	32ee-\JJJ	.	.	.	.	.	.	.	.	.	.	.
8r	.	.	8r	.	32ff\LLL	.	.	.	.	.	.	.	.	.	.	.
.	.	.	.	.	32ee-\	.	.	.	.	.	.	.	.	.	.	.
.	.	.	.	.	32dd\	.	.	.	.	.	.	.	.	.	.	.
.	.	.	.	.	32cc\JJJ	.	.	.	.	.	.	.	.	.	.	.
8r	.	.	8r	.	16cc\LL	.	.	.	.	.	.	.	.	.	4r	4r
.	.	.	.	.	16b-\J	.	.	.	.	.	.	.	.	.	.	.
!	!	!	!	!	!LO:TX:t=P:problem= łamanie w takcie	!	!	!	!	!	!	!	!	!	!	!
8E-\L	5 3	.	8g/L	.	8b-\J|	.	.	.	.	.	.	.	.	.	.	.
!	!	!	!	!	!LO:LB:g=original	!	!	!	!	!	!	!	!	!	!	!
8EE-/	.	.	8g/	.	16r	.	.	.	.	.	.	.	.	.	4g/	4ee-\
.	.	.	.	.	16ee-\LL	.	.	.	.	.	.	.	.	.	.	.
8E-\J	.	.	8B-/J	.	16b-\	.	.	.	.	.	.	.	.	.	.	.
.	.	.	.	.	16g\JJ	.	.	.	.	.	.	.	.	.	.	.
=3	=3	=3	=3	=3	=3	=3	=3	=3	=3	=3	=3	=3	=3	=3	=3	=3
4A-\	.	.	4c/	.	16g/LL	.	.	.	.	.	.	.	.	.	4a-/	4ff\
.	.	.	.	.	16f/J	.	.	.	.	.	.	.	.	.	.	.
.	.	.	.	.	8f/J	.	.	.	.	.	.	.	.	.	.	.
4B-\	.	.	4d/	.	16r	.	.	.	.	.	.	.	.	.	4f/	4dd\
.	.	.	.	.	16a-/LL	.	.	.	.	.	.	.	.	.	.	.
.	.	.	.	.	16d/	.	.	.	.	.	.	.	.	.	.	.
.	.	.	.	.	16f/JJ	.	.	.	.	.	.	.	.	.	.	.
4c\	.	.	4e-/	.	16e-/LL	.	.	.	.	.	.	.	.	.	4g/	4ee-\
.	.	.	.	.	16g/J	.	.	.	.	.	.	.	.	.	.	.
.	.	.	.	.	8g/J	.	.	.	.	.	.	.	.	.	.	.
4G\	6	.	4B-/	.	16r	.	.	.	.	.	.	.	.	.	4b-\	4ee-\
.	.	.	.	.	16b-/LL	.	.	.	.	.	.	.	.	.	.	.
.	.	.	.	.	16g/	.	.	.	.	.	.	.	.	.	.	.
.	.	.	.	.	16e-/JJ	.	.	.	.	.	.	.	.	.	.	.
=4	=4	=4	=4	=4	=4	=4	=4	=4	=4	=4	=4	=4	=4	=4	=4	=4
4A-\	.	.	4c/	.	16e-/LL	.	.	.	.	.	.	.	.	.	4a-\	4ff\
.	.	.	.	.	16f/J	.	.	.	.	.	.	.	.	.	.	.
.	.	.	.	.	8.f/J	.	.	.	.	.	.	.	.	.	.	.
4B-\	.	.	4d/	.	.	.	.	.	.	.	.	.	.	.	4f/	4dd\
.	.	.	.	.	16a-/LL	.	.	.	.	.	.	.	.	.	.	.
.	.	.	.	.	16d/	.	.	.	.	.	.	.	.	.	.	.
.	.	.	.	.	16f/JJ	.	.	.	.	.	.	.	.	.	.	.
8c\L	.	.	8e-/L	.	16e-/LL	.	.	.	.	.	.	.	.	.	8g/L	8ee-\L
.	.	.	.	.	16g/	.	.	.	.	.	.	.	.	.	.	.
8A-\	6	.	8f/	.	16f/	.	.	.	.	.	.	.	.	.	8a-/	8ff\
.	.	.	.	.	16a-/JJ	.	.	.	.	.	.	.	.	.	.	.
8B-\	4	.	8e-/	.	8g/L	.	.	.	.	.	.	.	.	.	8g/	8ee-\
8BB-\J	3	.	8d/J	.	8f/J	.	.	.	.	.	.	.	.	.	8f/J	8dd\J
!	!	!	!LO:LB:g=original	!	!	!	!	!	!	!	!	!	!	!	!	!
=5	=5	=5	=5	=5	=5	=5	=5	=5	=5	=5	=5	=5	=5	=5	=5	=5
*	*	*	*tremolo	*	*	*	*	*	*	*	*	*	*	*	*	*
4E-\	.	.	16e-/LL	.	(<16g/LL	p	0r	.	0r	.	0r	.	8r	.	4g/	4ee-\
.	.	.	16g/	.	16b-/	.	.	.	.	.	.	.	.	.	.	.
.	.	.	16e-/	.	16g/	.	.	.	.	.	.	.	4ee-\	Kÿ-	.	.
.	.	.	16g/	.	16b-/JJ)	.	.	.	.	.	.	.	.	.	.	.
4r	.	.	16e-/	.	(16g/LL	.	.	.	.	.	.	.	.	.	4r	4r
.	.	.	16g/	.	16b-/	.	.	.	.	.	.	.	.	.	.	.
.	.	.	16e-/	.	16g/	.	.	.	.	.	.	.	16gg\LL	-ri-	.	.
.	.	.	16g/JJ	.	16b-/JJ)	.	.	.	.	.	.	.	16ee-\JJ	.	.	.
*	*	*	*	*	*tremolo	*	*	*	*	*	*	*	*	*	*	*
8r	.	.	16d/LL	.	(16f/LL	.	.	.	.	.	.	.	16ee-\	e	2r	2r
.	.	.	16f/	.	16a-/	.	.	.	.	.	.	.	16dd\	.	.	.
8BB-\L	.	.	16d/	.	16f/	.	.	.	.	.	.	.	4dd\	e-	.	.
.	.	.	16f/	.	16a-/	.	.	.	.	.	.	.	.	.	.	.
8D\	.	.	16d/	.	16f/	.	.	.	.	.	.	.	.	.	.	.
.	.	.	16f/	.	16a-/	.	.	.	.	.	.	.	.	.	.	.
8F\J	.	.	16d/	.	16f/	.	.	.	.	.	.	.	8r	.	.	.
.	.	.	16f/JJ	.	16a-/)JJ	.	.	.	.	.	.	.	.	.	.	.
!LO:LB:g=original	!	!	!	!	!LO:LB:g=original	!	!	!	!	!	!	!	!	!	!	!
=6	=6	=6	=6	=6	=6	=6	=6	=6	=6	=6	=6	=6	=6	=6	=6	=6
!	!	!	!	!	!	!	!	!	!	!	!	!	!	!	!LO:TX:a:t=2	!LO:TX:a:t=2
4B-\	.	.	16d/LL	.	(16f/LL	.	.	.	.	.	.	.	8dd\	-lei-	0r	0r
.	.	.	16f/	.	16a-/	.	.	.	.	.	.	.	.	.	.	.
.	.	.	16d/	.	16f/	.	.	.	.	.	.	.	4dd\	.	.	.
.	.	.	16f/	.	16a-/	.	.	.	.	.	.	.	.	.	.	.
4r	.	.	16d/	.	16f/	.	.	.	.	.	.	.	.	.	.	.
.	.	.	16f/	.	16a-/	.	.	.	.	.	.	.	.	.	.	.
.	.	.	16d/	.	16f/	.	.	.	.	.	.	.	16ff\LL	-son	.	.
*	*	*	*	*	*	*	*	*	*	*	*	*	*	*ij	*	*
.	.	.	16f/JJ	.	16a-/)JJ	.	.	.	.	.	.	.	16dd\JJ	e-	.	.
8r	.	.	16e-/LL	.	(16g/LL	.	.	.	.	.	.	.	16ee-\LL	.	.	.
.	.	.	16g/	.	16b-/	.	.	.	.	.	.	.	16b-\JJ	-lei-	.	.
8E-\L	.	.	16e-/	.	16g/	.	.	.	.	.	.	.	8b-\	-son	.	.
*	*	*	*	*	*	*	*	*	*	*	*	*	*	*Xij	*	*
.	.	.	16g/	.	16b-/	.	.	.	.	.	.	.	.	.	.	.
8G\	.	.	16e-/	.	16g/	.	.	.	.	.	.	.	4r	.	.	.
.	.	.	16g/	.	16b-/	.	.	.	.	.	.	.	.	.	.	.
8B-\J	.	.	16e-/	.	16g/	.	.	.	.	.	.	.	.	.	.	.
.	.	.	16g/JJ	.	16b-/)JJ	.	.	.	.	.	.	.	.	.	.	.
!	!	!	!	!	!	!	!	!	!	!	!	!	!LO:LB:g=original	!	!	!
=7	=7	=7	=7	=7	=7	=7	=7	=7	=7	=7	=7	=7	=7	=7	=7	=7
8E-\	.	.	16e-/LL	.	(16g/LL	.	1r	.	1r	.	1r	.	16b-\LL	Chri-	.	.
.	.	.	16g/	.	16b-/	.	.	.	.	.	.	.	16ee-\JJ	.	.	.
8r	.	.	16e-/	.	16g/	.	.	.	.	.	.	.	4ee-\	.	.	.
.	.	.	16g/	.	16b-/	.	.	.	.	.	.	.	.	.	.	.
8E-\	.	.	16e-/	.	16g/	.	.	.	.	.	.	.	.	.	.	.
.	.	.	16g/	.	16b-/	.	.	.	.	.	.	.	.	.	.	.
8r	.	.	16e-/	.	16g/	.	.	.	.	.	.	.	16gg\LL	-ſte	.	.
.	.	.	16g/JJ	.	16b-/)JJ	.	.	.	.	.	.	.	16ee-\JJ	.	.	.
8BB-\	.	.	16d/LL	.	(16f/LL	.	.	.	.	.	.	.	16ee-\LL	e-	.	.
.	.	.	16f/	.	16a-/	.	.	.	.	.	.	.	16dd\JJ	.	.	.
8r	.	.	16d/	.	16f/	.	.	.	.	.	.	.	4dd\	-lei-	.	.
.	.	.	16f/	.	16a-/	.	.	.	.	.	.	.	.	.	.	.
8BB-\	.	.	16d/	.	16f/	.	.	.	.	.	.	.	.	.	.	.
.	.	.	16f/	.	16a-/	.	.	.	.	.	.	.	.	.	.	.
8r	.	.	16d/	.	16f/	.	.	.	.	.	.	.	8ff\	-son	.	.
.	.	.	16f/JJ	.	16a-/)JJ	.	.	.	.	.	.	.	.	.	.	.
=8	=8	=8	=8	=8	=8	=8	=8	=8	=8	=8	=8	=8	=8	=8	=8	=8
!LO:TX:t=P:problem=mixedbeam	!	!	!	!	!	!	!	!	!	!	!	!	!	!	!	!
*	*	*	*Xtremolo	*	*Xtremolo	*	*	*	*	*	*	*	*	*ij	*	*
8E-\L	.	.	8e-/L	.	16g/LL	.	2r	.	2r	.	2r	.	16gg\LL	e-	2r	2r
.	.	.	.	.	16b-/	.	.	.	.	.	.	.	16ee-\JJ	.	.	.
8G\	6	.	8c/	.	16cc/	.	.	.	.	.	.	.	16aa-\LL	.	.	.
.	.	.	.	.	16a-/JJ	.	.	.	.	.	.	.	16ff\JJ	.	.	.
8B-\	4	.	8B-/	.	8g/L	.	.	.	.	.	.	.	8ee-\L	-lei-	.	.
8BB-/J	3	.	8B-/J	.	8f/J	.	.	.	.	.	.	.	8dd\J	.	.	.
*tremolo	*	*	*	*	*	*	*	*	*	*	*	*	*	*	*	*
*2\right	*	*	*	*	*	*	*	*	*	*	*	*	*	*	*	*
8E-\L	.	.	4B-/	.	4g/	.	8r	.	8r	.	8r	.	8ee-\	-son	8r	8r
*	*	*	*	*	*	*	*	*	*	*	*	*	*	*Xij	*	*
8E-\	.	.	.	.	.	.	8E-\	Kÿ-	8B-\	Kÿ-	8b-\	Kÿ-	8gg\	e-	8gg\	8bb-\
!	!	!	!	!	!	!	!	!	!	!	!	!	!	!	!	!LO:LB:g=original
8E-\	.	.	4r	.	4r	.	8E-\	-rie	8B-\	.	(16b-\LL	-ri-	16gg\LL	-le-	(16gg\LL	(16bb-\LL
.	.	.	.	.	.	.	.	.	.	.	16a-\JJ)	.	16ff\JJ	.	16ff\	16aa-\)
8E-\J	.	.	.	.	.	.	8E-\	e-	8B-\	-ri-	(16a-\LL	.	16ff\LL	.	16ff\	(16aa-\
.	.	.	.	.	.	.	.	.	.	.	16g\JJ)	.	16ee-\JJ	.	16ee-\JJ)	16gg\JJ)
*Xtremolo	*	*	*	*	*	*	*	*	*	*	*	*	*	*	*	*
!	!	!	!	!	!	!	!	!	!	!	!	!	!	!	!LO:LB:g=original	!
=9	=9	=9	=9	=9	=9	=9	=9	=9	=9	=9	=9	=9	=9	=9	=9	=9
!LO:TX:t=P:problem=mixedbeam	!	!	!	!	!	!	!LO:TX:t=P:problem=mixed beam	!	!	!	!	!	!	!	!	!
8B-\L	.	.	16r	.	16r	.	8B-\L	-lei-	8B-\	-e	(16g\LL	-e	16ee-\LL	-i-	(16ee-\LL	(16gg\LL
.	.	.	16dd\LL	.	16ff\LL|	.	.	.	.	.	16f\JJ)	.	16dd\JJ	.	16dd\J)	16ff\J)
8BB-/J	.	.	16cc\	.	16ee-\|	.	8BB-/J	-son	8B-\	.	8f\	.	8dd\	-son	8dd\J	8ff\J|
.	.	.	16b-\JJ	.	16dd\JJ|	.	.	.	.	.	.	.	.	.	.	.
4r	.	.	16a-\LL	.	16cc\LL|	.	4r	.	4r	.	4r	.	4r	.	4r	4r
.	.	.	16g\	.	16b-\|	.	.	.	.	.	.	.	.	.	.	.
.	.	.	16f\	.	16a-\|	.	.	.	.	.	.	.	.	.	.	.
.	.	.	16e-\JJ	.	16g\JJ|	.	.	.	.	.	.	.	.	.	.	.
8r	.	.	4d/	.	4f/	.	8r	.	8r	.	8r	.	8r	.	8r	8r
*	*	*	*	*	*	*	*	*ij	*	*	*	*	*	*ij	*	*
!LO:TX:t=P:problem=mixedbeam	!	!	!	!	!	!	!	!	!	!	!	!	!	!	!	!
8B-\L	.	.	.	.	.	.	8B-\	Kÿ-	8B-\	Kÿ-	8a-\	Kÿ-	8ff\	e-	8ff\	8aa-\
8BB-/	.	.	4r	.	4r	.	8B-\	-rie	8B-\	.	16a-\LL	-ri-	16ff\LL	-le-	(16ff\LL	(16aa-\LL
.	.	.	.	.	.	.	.	.	.	.	16g\JJ	.	16ee-\JJ	.	16ee-\)	16gg\)
8B-\J	.	.	.	.	.	.	8B-\	e-	8B-\	-ri-	16g\LL	-e	16ee-\LL	.	(16ee-\	(16gg\
.	.	.	.	.	.	.	.	.	.	.	16f\JJ	e-	16dd\JJ	.	16dd\JJ)	16ff\JJ)
!	!	!	!	!	!	!	!	!	!	!	!LO:LB:g=original	!	!	!	!	!
=10	=10	=10	=10	=10	=10	=10	=10	=10	=10	=10	=10	=10	=10	=10	=10	=10
8e-\L	.	.	16r	.	16r	.	8e-\L	-lei-	8B-\	-e	8g\	-lei-	8ee-\	-i-	8ee-\L	8gg\L
.	.	.	16ee-\LL	.	16gg\LL|	.	.	.	.	.	.	.	.	.	.	.
8E-\J	.	.	16dd\	.	16ff\|	.	8E-\J	-son	8B-\	.	8g\	-son	8ee-\	-son	8ee-\J	8gg\J
*	*	*	*	*	*	*	*	*Xij	*	*	*	*	*	*Xij	*	*
.	.	.	16cc\JJ	.	16ee-\JJ|	.	.	.	.	.	.	.	.	.	.	.
4r	.	.	16b-\LL	.	16dd\LL|	.	4r	.	4r	.	4r	.	4r	.	4r	4r
.	.	.	16a-\	.	16cc\|	.	.	.	.	.	.	.	.	.	.	.
.	.	.	16g\	.	16b-\|	.	.	.	.	.	.	.	.	.	.	.
.	.	.	16f\JJ	.	16a-\JJ|	.	.	.	.	.	.	.	.	.	.	.
!LO:TX:a:i:t=Tutti	!	!	!	!	!	!LO:DY:a	!	!	!	!	!	!	!	!	!	!
8r	.	.	8g\L	.	16g\LL	f	8r	.	8r	.	8r	.	8r	.	8r	8r
.	.	.	.	.	16b-\J	.	.	.	.	.	.	.	.	.	.	.
!	!	!	!	!	!LO:TX:t=P:problem=łamanie linii w takcie	!	!	!	!	!	!	!	!LO:TX:t=P:problem=łamanie linii w takcie	!	!	!
8E-\L	.	.	8a-\	.	8ee-\J	.	8E-\L	Ki-	8e-\	Kÿ-	8b-\	Ky-	8gg\	Ki-	8gg\L	8bb-\L
!	!	!	!	!	!LO:LB:g=original	!	!	!	!	!	!	!	!LO:LB:g=original	!	!	!
8E-\	.	.	8b-\	.	16r	.	8e-\	.	8e-\	.	8b-\	-ri-	8gg\	-ri-	8gg\	8bb-\
.	.	.	.	.	16gg\LL	.	.	.	.	.	.	.	.	.	.	.
8E-\J	.	.	8b-\J	.	16bb-\	.	8e-\J	-ri-	8e-\	-ri-	8b-\	-e	8gg\	-e	8gg\J	8bb-\J
.	.	.	.	.	16gg\JJ	.	.	.	.	.	.	.	.	.	.	.
!	!	!	!LO:LB:g=original	!	!	!	!	!	!	!	!	!	!	!	!	!
=11	=11	=11	=11	=11	=11	=11	=11	=11	=11	=11	=11	=11	=11	=11	=11	=11
*tremolo	*	*	*	*	*	*	*	*	*	*	*	*	*	*	*2\right	*
8D\L	6	.	8b-\L	.	16ff\LL	.	4d\	-e	4f\	-e	(4b-\	e-	4ff\	e-	2ff\	4bb-\
.	.	.	.	.	16dd\J	.	.	.	.	.	.	.	.	.	.	.
8D\	.	.	8b-\J	.	8ff\J	.	.	.	.	.	.	.	.	.	.	.
!	!	!	!	!	!	!	!	!	!LO:TX:t=P:problem=łamanie linii w takcie	!	!	!	!	!	!	!
8D\	.	.	8b-\L	.	16r	.	4d\	e-	4f\	e-	4b-\	.	4ff\	-le-	.	4bb-\
.	.	.	.	.	16ff\LL	.	.	.	.	.	.	.	.	.	.	.
8D\J	.	.	8b-\J	.	16bb-\	.	.	.	.	.	.	.	.	.	.	.
.	.	.	.	.	16ff\JJ	.	.	.	.	.	.	.	.	.	.	.
*	*	*	*	*	*	*	*2\right	*	*	*	*	*	*2\right	*	*	*
!	!	!	!	!	!	!	!	!	!LO:LB:g=original	!	!	!	!	!	!	!
8C\L	7	.	8b-\L	.	(16ff\LL	.	2c\	-lei-	4g\	-lei-	4b-\)	.	2ee-\	-i-	2ee-\	4bb-\
.	.	.	.	.	16ee-\)	.	.	.	.	.	.	.	.	.	.	.
8C\	6|	.	8b-\J	.	16ee-'\	.	.	.	.	.	.	.	.	.	.	.
.	.	.	.	.	16ee-'\JJ	.	.	.	.	.	.	.	.	.	.	.
!	!	!	!	!	!LO:N:vis=8	!	!	!	!	!	!	!	!	!	!	!
8C\	.	.	8an\L	.	16ee-\L	.	.	.	4e-\	.	4an\	-lei-	.	.	.	4aa\
.	.	.	.	.	32ff\LL	.	.	.	.	.	.	.	.	.	.	.
.	.	.	.	.	32gg\JJJ	.	.	.	.	.	.	.	.	.	.	.
!	!	!	!	!	!LO:N:vis=8	!	!	!	!	!	!	!	!	!	!	!
8C\J	.	.	8a\J	.	16ff\LLL	.	.	.	.	.	.	.	.	.	.	.
!	!	!	!	!	!LO:N:vis=8	!	!	!	!	!	!	!	!	!	!	!
.	.	.	.	.	16ee-\JJJ	.	.	.	.	.	.	.	.	.	.	.
*Xtremolo	*	*	*	*	*	*	*	*	*	*	*	*	*	*	*	*
=12	=12	=12	=12	=12	=12	=12	=12	=12	=12	=12	=12	=12	=12	=12	=12	=12
!	!	!	!	!	!LO:TX:t=P:problem=mixedbeam	!LO:DY:a	!	!	!	!	!	!	!	!	!LO:TX:a:i:t=Solo	!LO:TX:a:i:t=Solo
8BB-/	.	.	16g/LL	.	(16dd\LL	p	4B-\	-son	4f\	-son	4b-\	-son	4dd\	-son	8dd\	16bb-\LL
.	.	.	16d/	.	16f/	.	.	.	.	.	.	.	.	.	.	16gg\JJ
8r	.	.	16B-/	.	16d/	.	.	.	.	.	.	.	.	.	4dd\	4ff\
.	.	.	16d/JJ	.	16f/JJ)	.	.	.	.	.	.	.	.	.	.	.
8BB-/	.	.	16B-/LL	.	(16d/LL	.	4r	.	4r	.	4r	.	4r	.	.	.
.	.	.	16d/	.	16f/	.	.	.	.	.	.	.	.	.	.	.
8r	.	.	16g/	.	16b-/	.	.	.	.	.	.	.	.	.	(16gg\LL	(16bb-\LL
.	.	.	16d/JJ	.	16g/JJ)	.	.	.	.	.	.	.	.	.	16ee-\JJ)	16gg\JJ)
8BB-/	.	.	16e-/LL	.	(16g/LL	.	2r	.	2r	.	2r	.	2r	.	(16ff\LL	16gg\LL
.	.	.	16d/	.	16f/	.	.	.	.	.	.	.	.	.	16dd\JJ)	16ff\JJ
8r	.	.	16B-/	.	16d/	.	.	.	.	.	.	.	.	.	4dd\	4ff\
.	.	.	16d/JJ	.	16f/JJ)	.	.	.	.	.	.	.	.	.	.	.
8BB-/	.	.	16B-/LL	.	(16d/LL	.	.	.	.	.	.	.	.	.	.	.
.	.	.	16d/	.	16f/	.	.	.	.	.	.	.	.	.	.	.
8r	.	.	16e-/	.	16g/	.	.	.	.	.	.	.	.	.	(16ee-\LL	16gg\LL
.	.	.	16c/JJ	.	16e-/JJ)	.	.	.	.	.	.	.	.	.	16cc\JJ)	16ee-\JJ
!LO:LB:g=original	!	!	!	!	!	!	!	!	!	!	!	!	!LO:LB:g=original	!	!	!
=13	=13	=13	=13	=13	=13	=13	=13	=13	=13	=13	=13	=13	=13	=13	=13	=13
!	!	!	!	!	!	!	!LO:TX:a:t=1	!	!	!	!LO:TX:a:t=1.	!	!LO:TX:t=P:problem=brak taktu	!	!	!
8BB-/	.	.	16c/LL	.	16e-/LL	.	1r	.	1r	.	1r	.	1ryy	.	(16cc\LL	(16ee-\LL
.	.	.	16B-/	.	16d/	.	.	.	.	.	.	.	.	.	16b-\J	16dd\J
8r	.	.	16d/	.	16f/	.	.	.	.	.	.	.	.	.	8.dd\J)	8.ff\J)
.	.	.	16B-/JJ	.	16d/JJ	.	.	.	.	.	.	.	.	.	.	.
!LO:TX:t=P:problem=mixedbeam	!	!	!	!	!	!	!	!	!	!	!	!	!	!	!	!
8F\L	4	.	16c/LL	.	16f/LL	.	.	.	.	.	.	.	.	.	.	.
.	.	.	16B-/	.	16d/	.	.	.	.	.	.	.	.	.	(16b-\LL	16dd\LL
8FF/J	n	.	16c/	.	16e-/	.	.	.	.	.	.	.	.	.	16cc\	16ee-\
.	.	.	16An/JJ	.	16c/JJ	.	.	.	.	.	.	.	.	.	16b-\JJ)	16cc\JJ
8BB-/L	.	.	8B-/L	.	8B-/L	.	.	.	.	.	.	.	.	.	8b-\L	8dd\L
8BB-/	.	.	8B-/	.	8B-/	.	.	.	.	.	.	.	.	.	16b-\L	16dd\L
.	.	.	.	.	.	.	.	.	.	.	.	.	.	.	16dd\JJ	16ff\JJ
!	!	!	!	!	!	!	!	!	!	!	!	!	!	!	!LO:N:vis=4	!
8BB-/J	.	.	8B-/J	.	8B-/J	.	.	.	.	.	.	.	.	.	8b-\	8dd\
!	!	!	!	!	!	!	!	!	!	!	!	!	!	!	!LO:N:vis=4	!
8r	.	.	8r	.	8r	.	.	.	.	.	.	.	.	.	8r	8r
!LO:LB:g=original	!	!	!LO:LB:g=original	!	!LO:LB:g=original	!	!LO:LB:g=original	!	!	!	!LO:LB:g=original	!	!	!	!LO:LB:g=original	!LO:LB:g=original
=14||	=14||	=14||	=14||	=14||	=14||	=14||	=14||	=14||	=14||	=14||	=14||	=14||	=14||	=14||	=14||	=14||
*M2/2	*	*	*M2/2	*	*M2/2	*	*M2/2	*	*M2/2	*	*M2/2	*	*M2/2	*	*M2/2	*M2/2
*met(c|)	*	*	*met(c|)	*	*met(c|)	*	*met(c|)	*	*met(c|)	*	*met(c|)	*	*met(c|)	*	*met(c|)	*met(c|)
*tremolo	*	*	*	*	*	*	*	*	*	*	*	*	*	*	*	*
!LO:TX:t=P:problem= kolejnośc znaków [E- BB- AA-]	!	!	!LO:TX:t=P:problem= kolejnośc znaków es b as	!	!	!	!LO:TX:a:t=8	!	!LO:TX:a:t=8	!	!	!	!LO:TX:i:a:t=Solo:color=grey	!	!LO:TX:a:t=8	!LO:TX:a:t=8.
!LO:TX:a:i:t=Allegro Vivace	!	!	!LO:TX:a:t=Allegro vivace	!	!LO:TX:a:t=Allegro Vivace	!	!LO:TX:a:t=Allegro	!	!	!	!LO:TX:a:t=Allegro vivace	!	!LO:TX:a:t=Allegro vivace	!	!LO:TX:a:t=Allegro vivace.	!LO:TX:a:t=Allegro vivace.
8E-\L	.	.	4.g/	p	(4.b-\	.	00r	.	00r	.	4.g\	Kÿ-	4.b-\	Ky-	00r	00r
8E-\	.	.	.	.	.	.	.	.	.	.	.	.	.	.	.	.
8E-\	.	.	.	.	.	.	.	.	.	.	.	.	.	.	.	.
8E-\J	.	.	(16a-/LL	.	16cc\LL)	.	.	.	.	.	16a-\LL	.	16cc\LL	-ri-	.	.
.	.	.	16g/JJ)	.	16b-\JJ	.	.	.	.	.	16g\JJ	.	16b-\JJ	.	.	.
8E-\L	.	.	4e-/	.	4g/	.	.	.	.	.	4e-\	-ri-	4g\	.	.	.
8E-\	.	.	.	.	.	.	.	.	.	.	.	.	.	.	.	.
8E-\	.	.	4f/	.	4a-/	.	.	.	.	.	4f\	.	4a-\	.	.	.
8E-\J	.	.	.	.	.	.	.	.	.	.	.	.	.	.	.	.
=15	=15	=15	=15	=15	=15	=15	=15	=15	=15	=15	=15	=15	=15	=15	=15	=15
!	!	!	!	!	!	!	!	!	!	!	!LO:SIC:v:l:s=-e	!	!LO:SIC:v:l:s=-e	!	!	!
8E-\L	.	.	4.g/	.	(4.b-\	.	.	.	.	.	4.g\	-ie	4.b-\	-ie	.	.
8E-\	.	.	.	.	.	.	.	.	.	.	.	.	.	.	.	.
8E-\	.	.	.	.	.	.	.	.	.	.	.	.	.	.	.	.
8E-\J	.	.	8a-/	.	8cc\)	.	.	.	.	.	8a-\	.	8cc\	.	.	.
8E-\L	.	.	4g/	.	8b-\L	.	.	.	.	.	4g\	.	4b-\	.	.	.
8E-\	.	.	.	.	8cc\	.	.	.	.	.	.	.	.	.	.	.
8E-\	.	.	4g/	.	8dd\	.	.	.	.	.	4r	.	4r	.	.	.
8E-\J	.	.	.	.	8ee-\J	.	.	.	.	.	.	.	.	.	.	.
=16	=16	=16	=16	=16	=16	=16	=16	=16	=16	=16	=16	=16	=16	=16	=16	=16
8BB-/L	.	.	4.f/	.	4.a-/	.	.	.	.	.	4.f\	Kÿ-	4.a-\	Ky-	.	.
8BB-/	.	.	.	.	.	.	.	.	.	.	.	.	.	.	.	.
8BB-/	.	.	.	.	.	.	.	.	.	.	.	.	.	.	.	.
8BB-/J	.	.	(16g/LL	.	16b-/LL	.	.	.	.	.	(16g\LL	-ri-	16b-\LL	-ri-	.	.
.	.	.	16f/JJ)	.	16a-/JJ	.	.	.	.	.	16f\JJ)	.	16a-\JJ	.	.	.
8BB-/L	.	.	4d/	.	4f/	.	.	.	.	.	4d\	-e	4f/	-[e]	.	.
8BB-/	.	.	.	.	.	.	.	.	.	.	.	.	.	.	.	.
8BB-/	.	.	4e-/	.	4g/	.	.	.	.	.	4e-\	e-	4g/	e-	.	.
8BB-/J	.	.	.	.	.	.	.	.	.	.	.	.	.	.	.	.
=17	=17	=17	=17	=17	=17	=17	=17	=17	=17	=17	=17	=17	=17	=17	=17	=17
!LO:TX:t=P:problem= tak 17 zapisany repetycją	!	!	!	!	!	!	!	!	!	!	!	!	!	!	!	!
8BB-/Lyy	.	.	4.f/	.	4.a-/	.	.	.	.	.	(4.f\	-le-	4.a-\	-lei-	.	.
8BB-/yy	.	.	.	.	.	.	.	.	.	.	.	.	.	.	.	.
8BB-/yy	.	.	.	.	.	.	.	.	.	.	.	.	.	.	.	.
8BB-/Jyy	.	.	8g/	.	8b-/	.	.	.	.	.	8g\)	-i-	8b-\	-i-	.	.
8BB-/Lyy	.	.	4e-/	.	8a-\L	.	.	.	.	.	4f\	-son	4a-\	-son	.	.
8BB-/yy	.	.	.	.	8b-\	.	.	.	.	.	.	.	.	.	.	.
8BB-/yy	.	.	4f/	.	8cc\	.	.	.	.	.	4r	.	4r	.	.	.
8BB-/Jyy	.	.	.	.	8dd\J	.	.	.	.	.	.	.	.	.	.	.
=18	=18	=18	=18	=18	=18	=18	=18	=18	=18	=18	=18	=18	=18	=18	=18	=18
*	*	*	*	*	*2\right	*	*	*	*	*	*2\right	*	*	*	*	*
8E-\L	3	.	2g/	.	(2ee-\	.	00r	.	00r	.	2g\	Chri-	2ee-\	Chri-	00r	00r
8E-\	.	.	.	.	.	.	.	.	.	.	.	.	.	.	.	.
8E-\	.	.	.	.	.	.	.	.	.	.	.	.	.	.	.	.
8E-\J	.	.	.	.	.	.	.	.	.	.	.	.	.	.	.	.
8E-\L	7 5	.	4b-/	.	4dd\)	.	.	.	.	.	4b-\	.	4dd\	.	.	.
8E-\	.	.	.	.	.	.	.	.	.	.	.	.	.	.	.	.
8E-\	6 4	.	4a-/	.	4cc\	.	.	.	.	.	4a-\	.	4cc\	-ste	.	.
8E-\J	.	.	.	.	.	.	.	.	.	.	.	.	.	.	.	.
=19	=19	=19	=19	=19	=19	=19	=19	=19	=19	=19	=19	=19	=19	=19	=19	=19
*	*	*	*	*	*	*	*	*	*	*	*	*	*	*ij	*	*
8E-\L	3	.	2g/	.	2b-\	.	.	.	.	.	2g\	-ſte	2b-\	Chri-	.	.
8E-\	.	.	.	.	.	.	.	.	.	.	.	.	.	.	.	.
8E-\	.	.	.	.	.	.	.	.	.	.	.	.	.	.	.	.
8E-\J	.	.	.	.	.	.	.	.	.	.	.	.	.	.	.	.
*	*	*	*	*	*	*	*	*	*	*	*	*ij	*	*	*	*
8E-\L	3 1	.	4e-/	.	4g/	.	.	.	.	.	4e-\	Chri-	4g\	.	.	.
8E-\	.	.	.	.	.	.	.	.	.	.	.	.	.	.	.	.
8E-\	4 2	.	4f/	.	4a-/	.	.	.	.	.	4f\	.	4a-\	-ste	.	.
8E-\J	.	.	.	.	.	.	.	.	.	.	.	.	.	.	.	.
!	!	!	!	!	!LO:LB:g=original	!	!	!	!	!	!	!	!LO:LB:g=original	!	!	!
=20	=20	=20	=20	=20	=20	=20	=20	=20	=20	=20	=20	=20	=20	=20	=20	=20
!	!	!	!	!	!	!	!	!	!	!	!LO:TX:t=P:problem=łamanie linii w takcie	!	!	!	!	!
8E-\L	3	.	2g/	.	2b-\	.	.	.	.	.	2g\	.	2b-\	Chri-	.	.
8E-\	.	.	.	.	.	.	.	.	.	.	.	.	.	.	.	.
8E-\	.	.	.	.	.	.	.	.	.	.	.	.	.	.	.	.
8E-\J	.	.	.	.	.	.	.	.	.	.	.	.	.	.	.	.
8E-\L	.	.	8a-/L	.	8cc\L	.	.	.	.	.	8a-\L	-ſte	8cc\L	.	.	.
8E-\	.	.	8g/	.	8b-\	.	.	.	.	.	8g\J	.	8b-\J	.	.	.
8E-\	.	.	8f/	.	8a-\	.	.	.	.	.	8f\L	.	8a-\L	-ste	.	.
8E-\J	.	.	8e-/J	.	8g\J	.	.	.	.	.	8e-\J	.	8g\J	.	.	.
*Xtremolo	*	*	*	*	*	*	*	*	*	*	*	*Xij	*	*Xij	*	*
!	!	!	!LO:LB:g=original	!	!	!	!	!	!	!	!	!	!	!	!	!
=21	=21	=21	=21	=21	=21	=21	=21	=21	=21	=21	=21	=21	=21	=21	=21	=21
!LO:TX:t=P:problem=mixedbeam	!	!	!	!	!	!	!	!	!	!	!	!	!	!	!	!
8B-\L	4_	.	4.g/	.	4.b-\	.	.	.	.	.	(4.g\	e-	4.b-\	e-	.	.
8B-\	.	.	.	.	.	.	.	.	.	.	.	.	.	.	.	.
8BB-/	.	.	.	.	.	.	.	.	.	.	.	.	.	.	.	.
8BB-/J	.	.	8e-/	.	8g/	.	.	.	.	.	8e-\)	-lei-	8g\	-lei-	.	.
8B-\L	3_	.	4d/	.	4f/	.	.	.	.	.	4d\	-son	4f/	-son	.	.
8A-\	.	.	.	.	.	.	.	.	.	.	.	.	.	.	.	.
8G\	.	.	4r	.	4r	.	.	.	.	.	4r	.	4r	.	.	.
8F\J	.	.	.	.	.	.	.	.	.	.	.	.	.	.	.	.
=22	=22	=22	=22	=22	=22	=22	=22	=22	=22	=22	=22	=22	=22	=22	=22	=22
*	*	*	*^	*	*	*	*	*	*	*	*	*	*	*	*	*
*tremolo	*	*	*	*	*	*	*	*	*	*2\right	*	*	*	*	*	*	*
!LO:TX:a:i:t=Tutti	!	!	!	!	!	!	!LO:DY:f=forte	!	!	!	!	!	!	!	!	!	!
8E-\L	x	.	8g/	1G\	.	2.ee-\	f	2E-\	Kÿ-	2B-\	Ky-	2g\	Kÿ-	2ee-\	Kÿ-	4ee-\	4gg\
8E-\	.	.	4g/	.	.	.	.	.	.	.	.	.	.	.	.	.	.
8E-\	.	.	.	.	.	.	.	.	.	.	.	.	.	.	.	4gg\	4bb-\
8E-\J	.	.	4g/	.	.	.	.	.	.	.	.	.	.	.	.	.	.
8E-\L	.	.	.	.	.	.	.	2E-\	-ri-	2B-\	-rie	2g\	-ri-	2ee-\	-ri-	4ee-\	4gg\
8E-\	.	.	4g/	.	.	.	.	.	.	.	.	.	.	.	.	.	.
.	.	.	.	.	.	8qqaa-/	.	.	.	.	.	.	.	.	.	.	.
8E-\	.	.	.	.	.	8gg\L	.	.	.	.	.	.	.	.	.	4gg\	(<4bb-\
8E-\J	.	.	[<8g/	.	.	16ff\L	.	.	.	.	.	.	.	.	.	.	.
.	.	.	.	.	.	16gg\JJ	.	.	.	.	.	.	.	.	.	.	.
!LO:LB:g=original	!	!	!	!	!	!	!	!	!	!	!	!	!	!	!	!	!
=23	=23	=23	=23	=23	=23	=23	=23	=23	=23	=23	=23	=23	=23	=23	=23	=23	=23
8E-\L	.	.	8g/]	1G\	.	4bb-\	.	2E-\	-e	2B-\	e-	2g\	-e	2ee-\	-e	1ee-\	[<1gg\)
8E-\	.	.	4g/	.	.	.	.	.	.	.	.	.	.	.	.	.	.
.	.	.	.	.	.	8qqaa-/	.	.	.	.	.	.	.	.	.	.	.
8E-\	.	.	.	.	.	8gg\L	.	.	.	.	.	.	.	.	.	.	.
8E-\J	.	.	4g/	.	.	16ff\L	.	.	.	.	.	.	.	.	.	.	.
.	.	.	.	.	.	16gg\JJ	.	.	.	.	.	.	.	.	.	.	.
8E-\L	.	.	.	.	.	4ee-\	.	2E-\	e-	2B-\	-lei-	2g\	e-	2ee-\	e-	.	.
8E-\	.	.	4g/	.	.	.	.	.	.	.	.	.	.	.	.	.	.
8E-\	.	.	.	.	.	4cc\	.	.	.	.	.	.	.	.	.	.	.
8E-\J	.	.	[<8g/	.	.	.	.	.	.	.	.	.	.	.	.	.	.
=24	=24	=24	=24	=24	=24	=24	=24	=24	=24	=24	=24	=24	=24	=24	=24	=24	=24
8E-\L	.	.	8g/]	1G\	.	2.g/	.	2E-\	-lei-	2B-\	-i-	2g\	-lei-	2ee-\	-lei-	4ee-\	4gg\]
8E-\	.	.	4g/	.	.	.	.	.	.	.	.	.	.	.	.	.	.
8E-\	.	.	.	.	.	.	.	.	.	.	.	.	.	.	.	4gg\	4bb-\
8E-\J	.	.	4g/	.	.	.	.	.	.	.	.	.	.	.	.	.	.
8E-\L	.	.	.	.	.	.	.	2E-\	-son	2B-\	-son	2g\	-son	2ee-\	-ſon	4ee-\	4gg\
8E-\	.	.	4g/	.	.	.	.	.	.	.	.	.	.	.	.	.	.
.	.	.	.	.	.	8qqcc/	.	.	.	.	.	.	.	.	.	.	.
8E-\	.	.	.	.	.	8b-\L	.	.	.	.	.	.	.	.	.	4gg\	4bb-\
8E-\J	.	.	[<8g/	.	.	16a-\L	.	.	.	.	.	.	.	.	.	.	.
.	.	.	.	.	.	16b-\JJ	.	.	.	.	.	.	.	.	.	.	.
=25	=25	=25	=25	=25	=25	=25	=25	=25	=25	=25	=25	=25	=25	=25	=25	=25	=25
*	*	*	*	*	*	*	*	*	*	*	*ij	*	*ij	*	*ij	*	*
8E-\L	.	.	8g/]	1G\	.	4ee-\	.	2E-\	Ki-	2B-\	Ky-	2g\	e-	2ee-\	e-	1ee-\	(<1gg\
8E-\	.	.	4g/	.	.	.	.	.	.	.	.	.	.	.	.	.	.
.	.	.	.	.	.	8qqaa-/	.	.	.	.	.	.	.	.	.	.	.
8E-\	.	.	.	.	.	8gg\L	.	.	.	.	.	.	.	.	.	.	.
8E-\J	.	.	4g/	.	.	16ff\L	.	.	.	.	.	.	.	.	.	.	.
.	.	.	.	.	.	16gg\JJ	.	.	.	.	.	.	.	.	.	.	.
8E-\L	.	.	.	.	.	4bb-\	.	2E-\	-ri-	2B-\	-rie	2g\	-lei-	2ee-\	-lei-	.	.
8E-\	.	.	4g/	.	.	.	.	.	.	.	.	.	.	.	.	.	.
8E-\	.	.	.	.	.	4gg\	.	.	.	.	.	.	.	.	.	.	.
8E-\J	.	.	(<8g/	.	.	.	.	.	.	.	.	.	.	.	.	.	.
*	*	*	*	*	*	*	*	*	*	*	*Xij	*	*	*	*	*	*
=26	=26	=26	=26	=26	=26	=26	=26	=26	=26	=26	=26	=26	=26	=26	=26	=26	=26
8BB-/L	.	.	8f/)	1d\	.	2.ff\	.	2B-\	-e	2B-\	e-	2f\	-son	2dd\	-son	4dd\	4ff\)
8BB-/	.	.	4f/	.	.	.	.	.	.	.	.	.	.	.	.	.	.
8BB-/	.	.	.	.	.	.	.	.	.	.	.	.	.	.	.	4ff\	4aa-\
8BB-/J	.	.	4f/	.	.	.	.	.	.	.	.	.	.	.	.	.	.
8BB-/L	.	.	.	.	.	.	.	2B-\	e-	2B-\	-le-	2f\	e-	2dd\	e-	4dd\	4ff\
8BB-/	.	.	4f/	.	.	.	.	.	.	.	.	.	.	.	.	.	.
.	.	.	.	.	.	8qqgg/	.	.	.	.	.	.	.	.	.	.	.
8BB-/	.	.	.	.	.	8ff\L	.	.	.	.	.	.	.	.	.	4ff\	(<4aa-\
8BB-/J	.	.	[<8f/	.	.	16ee-\L	.	.	.	.	.	.	.	.	.	.	.
.	.	.	.	.	.	16ff\JJ	.	.	.	.	.	.	.	.	.	.	.
=27	=27	=27	=27	=27	=27	=27	=27	=27	=27	=27	=27	=27	=27	=27	=27	=27	=27
8BB-/L	.	.	8f/]	1d\	.	4aa-\	.	2B-\	-le-	2B-\	-i-	2f\	-lei-	2dd\	-lei-	1dd\	[<1ff\)
8BB-/	.	.	4f/	.	.	.	.	.	.	.	.	.	.	.	.	.	.
.	.	.	.	.	.	8qqgg/	.	.	.	.	.	.	.	.	.	.	.
8BB-/	.	.	.	.	.	8ff\L	.	.	.	.	.	.	.	.	.	.	.
8BB-/J	.	.	4f/	.	.	16ee-\L	.	.	.	.	.	.	.	.	.	.	.
!	!	!	!	!	!	!LO:TX:t=P:problem=łamanie linii w takcie	!	!	!	!	!	!	!	!	!	!	!
.	.	.	.	.	.	16ff\JJ	.	.	.	.	.	.	.	.	.	.	.
!	!	!	!	!	!	!LO:LB:g=original	!	!	!	!	!	!	!	!	!	!	!
8BB-/L	.	.	.	.	.	4dd\	.	2B-\	-i-	2B-\	-son	2f\	-son	2dd\	-son	.	.
8BB-/	.	.	4f/	.	.	.	.	.	.	.	.	.	.	.	.	.	.
8BB-/	.	.	.	.	.	4b-\	.	.	.	.	.	.	.	.	.	.	.
8BB-/J	.	.	[<8f/	.	.	.	.	.	.	.	.	.	.	.	.	.	.
!	!	!	!LO:LB:g=original	!	!	!	!	!	!	!	!	!	!	!	!	!	!
=28	=28	=28	=28	=28	=28	=28	=28	=28	=28	=28	=28	=28	=28	=28	=28	=28	=28
*	*	*	*	*	*	*	*	*	*	*	*ij	*	*	*	*	*	*
8BB-/L	.	.	8f/]	1d\	.	2.f/	.	2B-\	-son	2B-\	Ky-	2f\	e-	2dd\	e-	4dd\	4ff\]
8BB-/	.	.	4f/	.	.	.	.	.	.	.	.	.	.	.	.	.	.
8BB-/	.	.	.	.	.	.	.	.	.	.	.	.	.	.	.	4ff\	4aa-\
8BB-/J	.	.	4f/	.	.	.	.	.	.	.	.	.	.	.	.	.	.
8BB-/L	.	.	.	.	.	.	.	2B-\	.	2B-\	-ri-	2f\	-le-	2dd\	-le-	4dd\	4ff\
8BB-/	.	.	4f/	.	.	.	.	.	.	.	.	.	.	.	.	.	.
8BB-/	.	.	.	.	.	8b-\L	.	.	.	.	.	.	.	.	.	4ff\	(<4aa-\
8BB-/J	.	.	[8f/	.	.	(16a-\L	.	.	.	.	.	.	.	.	.	.	.
.	.	.	.	.	.	16b-\JJ)	.	.	.	.	.	.	.	.	.	.	.
=29	=29	=29	=29	=29	=29	=29	=29	=29	=29	=29	=29	=29	=29	=29	=29	=29	=29
*	*	*	*	*	*	*	*	*	*ij	*	*	*	*	*	*	*	*
8BB-/L	.	.	8f/]	1d\	.	4dd\	.	2B-\	e-	2B-\	-e	2f\	-i-	2dd\	-i-	1dd\	(<1ff\)
8BB-/	.	.	4f/	.	.	.	.	.	.	.	.	.	.	.	.	.	.
.	.	.	.	.	.	8qqgg/	.	.	.	.	.	.	.	.	.	.	.
8BB-/	.	.	.	.	.	8ff\L	.	.	.	.	.	.	.	.	.	.	.
8BB-/J	.	.	4f/	.	.	16ee-\L	.	.	.	.	.	.	.	.	.	.	.
.	.	.	.	.	.	16ff\JJ	.	.	.	.	.	.	.	.	.	.	.
8BB-/L	.	.	.	.	.	4aa-\	.	2B-\	-le-	2B-\	e-	2f\	-son-	2dd\	-son	.	.
*	*	*	*	*	*	*	*	*	*	*	*	*	*Xij	*	*Xij	*	*
8BB-/	.	.	4f/	.	.	.	.	.	.	.	.	.	.	.	.	.	.
8BB-/	.	.	.	.	.	4ff\	.	.	.	.	.	.	.	.	.	.	.
8BB-/J	.	.	(<8f/	.	.	.	.	.	.	.	.	.	.	.	.	.	.
!	!	!	!	!	!	!	!	!	!	!	!	!	!	!LO:LB:g=original	!	!	!
=30	=30	=30	=30	=30	=30	=30	=30	=30	=30	=30	=30	=30	=30	=30	=30	=30	=30
8E-\L	.	.	8e-/)	8ryy	.	4gg\	.	2E-\	-i-	2B-\	-le-	2g\	Kÿ-	2ee-\	Kÿ-	1ee-\	(<1gg\)
8E-\	.	.	4b-/	4g\	.	.	.	.	.	.	.	.	.	.	.	.	.
8E-\	.	.	.	.	.	4gg\	.	.	.	.	.	.	.	.	.	.	.
8E-\J	.	.	4b-/	4g\	.	.	.	.	.	.	.	.	.	.	.	.	.
8E-\L	.	.	.	.	.	4r	.	4E-\	-son	4B-\	-i-	4g\	.	4ee-\	-ri-	.	.
8E-\	.	.	4b-/	4g\	.	.	.	.	.	.	.	.	.	.	.	.	.
.	.	.	.	.	.	8qqaa-/	.	.	.	.	.	.	.	.	.	.	.
8E-\	.	.	.	.	.	8gg\L	.	4E-\	e-	4B-\	-son	4g\	.	4ee-\	-e	.	.
8E-\J	.	.	[<8b-/	8a-\	.	16ff\L	.	.	.	.	.	.	.	.	.	.	.
.	.	.	.	.	.	16gg\JJ	.	.	.	.	.	.	.	.	.	.	.
!	!	!	!	!	!	!	!	!	!	!	!	!LO:LB:g=original	!	!	!	!	!
=31	=31	=31	=31	=31	=31	=31	=31	=31	=31	=31	=31	=31	=31	=31	=31	=31	=31
!	!	!	!LO:N:vis=4	!	!	!	!	!	!	!	!	!	!	!	!	!	!
8D\L	6 5	.	8b-/]	8g\	.	4aa-\	.	2D\	-le-	2B-\	Ky-	2a-\	-rie	2ff\	e-	1ff\	(<1aa-\)
8D\	.	.	4b-/	4g\	.	.	.	.	.	.	.	.	.	.	.	.	.
8D\	.	.	.	.	.	4aa-\	.	.	.	.	.	.	.	.	.	.	.
8D\J	.	.	4b-/	4g\	.	.	.	.	.	.	.	.	.	.	.	.	.
8D\L	.	.	.	.	.	4r	.	4D\	-i-	4B-\	-rie	4a-\	.	4ff\	-lei-	.	.
8D\	.	.	4b-/	4g\	.	.	.	.	.	.	.	.	.	.	.	.	.
.	.	.	.	.	.	8qqgg/	.	.	.	.	.	.	.	.	.	.	.
8D\	.	.	.	.	.	8ff\L	.	4D\	-son	4B-\	e-	4a-\	.	4ff\	-son	.	.
8D\J	.	.	[<8b-/	8a-\	.	16ee-\L	.	.	.	.	.	.	.	.	.	.	.
.	.	.	.	.	.	16ff\JJ	.	.	.	.	.	.	.	.	.	.	.
!	!	!	!	!	!	!	!	!LO:LB:g=original	!	!	!	!	!	!	!	!	!
=32	=32	=32	=32	=32	=32	=32	=32	=32	=32	=32	=32	=32	=32	=32	=32	=32	=32
*	*	*	*	*	*	*	*	*	*Xij	*	*	*	*	*	*ij	*	*
!LO:TX:t=P:problem= takty 32-33 zapisane repetycją	!	!	!	!	!	!	!	!	!	!	!	!	!	!	!	!	!
8E-\Lyy	.	.	8b-/]	8g\	.	4gg\	.	2E-\	e-	2B-\	-le-	2g\	e-	2ee-\	Kÿ-	1ee-\	(<1gg\)
8E-\yy	.	.	4b-/	4g\	.	.	.	.	.	.	.	.	.	.	.	.	.
8E-\yy	.	.	.	.	.	4gg\	.	.	.	.	.	.	.	.	.	.	.
8E-\Jyy	.	.	4b-/	4g\	.	.	.	.	.	.	.	.	.	.	.	.	.
8E-\Lyy	.	.	.	.	.	4r	.	4E-\	-lei-	4B-\	-i-	4g\	-lei-	4ee-\	.	.	.
8E-\yy	.	.	4b-/	4g\	.	.	.	.	.	.	.	.	.	.	.	.	.
.	.	.	.	.	.	8qqaa-/	.	.	.	.	.	.	.	.	.	.	.
8E-\yy	.	.	.	.	.	8gg\L	.	4E-\	.	4B-\	-son	4g\	-son	4ee-\	-rie	.	.
8E-\Jyy	.	.	[<8b-/	8g\	.	16ff\L	.	.	.	.	.	.	.	.	.	.	.
.	.	.	.	.	.	16gg\JJ	.	.	.	.	.	.	.	.	.	.	.
!	!	!	!	!	!	!	!	!	!	!	!	!	!	!	!	!	!LO:LB:g=original
=33	=33	=33	=33	=33	=33	=33	=33	=33	=33	=33	=33	=33	=33	=33	=33	=33	=33
*	*	*	*	*	*	*	*	*	*	*	*Xij	*	*ij	*	*	*	*
!	!	!	!	!	!	!	!	!	!	!	!	!	!	!	!	!	!LO:TX:t=P:problem=brak zakończenia luku
8D\Lyy	6 5	.	8b-/] 8f/	8ryy	.	4aa-\	.	2D\	-son	2B-\	e-	2a-\	Ky-	2ff\	e-	1ff\	(<1aa-\)
8D\yy	.	.	4b-/ 4f/	4ryy	.	.	.	.	.	.	.	.	.	.	.	.	.
8D\yy	.	.	.	.	.	4aa-\	.	.	.	.	.	.	.	.	.	.	.
8D\Jyy	.	.	4b-/	4a-\	.	.	.	.	.	.	.	.	.	.	.	.	.
8D\Lyy	.	.	.	.	.	4r	.	4D\	.	4B-\	-le-	4a-\	-rie	4ff\	-lei-	.	.
8D\yy	.	.	4b-/	4a-\	.	.	.	.	.	.	.	.	.	.	.	.	.
.	.	.	.	.	.	8qqgg/	.	.	.	.	.	.	.	.	.	.	.
8D\yy	.	.	.	.	.	8ff\L	.	4D\	.	4B-\	-i-	4a-\	.	4ff\	-son	.	.
8D\Jyy	.	.	[<8b-/	8g\	.	16ee-\L	.	.	.	.	.	.	.	.	.	.	.
.	.	.	.	.	.	16ff\JJ	.	.	.	.	.	.	.	.	.	.	.
*Xtremolo	*	*	*	*	*	*	*	*	*	*	*	*	*	*	*	*	*
=34	=34	=34	=34	=34	=34	=34	=34	=34	=34	=34	=34	=34	=34	=34	=34	=34	=34
4E-\	3_	.	8b-/]	8g\	.	8ee-\	.	2E-\	.	2B-\	-son	2g\	e-	2ee-\	Kÿ-	1ee-\	[<1gg\)
.	.	.	4ee-\	4.ryy	.	4gg\	.	.	.	.	.	.	.	.	.	.	.
8r	.	.	.	.	.	.	.	.	.	.	.	.	.	.	.	.	.
16E-\LL	.	.	4ee-\	.	.	4gg\	.	.	.	.	.	.	.	.	.	.	.
16D\JJ	.	.	.	.	.	.	.	.	.	.	.	.	.	.	.	.	.
8E-\L	.	.	.	2ryy	.	.	.	2E-\	e-	2B-\	.	4g\	-lei-	2ee-\	-ri-	.	.
8F\	.	.	4ee-\	.	.	4gg\	.	.	.	.	.	.	.	.	.	.	.
8G\	.	.	.	.	.	.	.	.	.	.	.	4g\	-son	.	.	.	.
8E-\J	.	.	[<8ee-\	.	.	8gg\	.	.	.	.	.	.	.	.	.	.	.
*	*	*	*v	*v	*	*	*	*	*	*	*	*	*	*	*	*	*
!LO:LB:g=original	!	!	!LO:LB:g=original	!	!LO:LB:g=original	!	!	!	!	!	!	!	!	!	!LO:LB:g=original	!
=35	=35	=35	=35	=35	=35	=35	=35	=35	=35	=35	=35	=35	=35	=35	=35	=35
!	!	!	!LO:TX:t=P:problem=brak zakończenia ligatury	!	!	!	!	!	!	!	!	!	!	!	!	!
4C/	.	.	8ee-\]	.	8gg\	.	2c\	.	2c\	.	2g\	e-	2ee-\	-e	1ee-\	1gg\_<
.	.	.	4ee-\	.	4gg\	.	.	.	.	.	.	.	.	.	.	.
8r	.	.	.	.	.	.	.	.	.	.	.	.	.	.	.	.
16C/LL	.	.	4ee-\	.	4gg\	.	.	.	.	.	.	.	.	.	.	.
16BB-/JJ	.	.	.	.	.	.	.	.	.	.	.	.	.	.	.	.
!	!	!	!	!	!	!	!	!	!LO:TX:t=P:4\right:problem	!	!	!	!	!	!	!
8C\L	.	.	.	.	.	.	4c\	-lei-	4c\	e-	4g\	-lei-	4ee-\	e-	.	.
8D\	.	.	4ee-\	.	4gg\	.	.	.	.	.	.	.	.	.	.	.
!	!	!	!	!	!	!	!	!	!LO:TX:t=P:4\right:problem	!	!	!	!	!	!	!
8E-\	.	.	.	.	.	.	4c\	.	4c\	.	4g\	-son	4ee-\	-le-	.	.
8C\J	.	.	8ee-\	.	8gg\	.	.	.	.	.	.	.	.	.	.	.
*	*	*	*	*	*	*	*	*	*	*	*	*Xij	*	*	*	*
!	!	!	!	!	!	!	!	!	!LO:LB:g=original	!	!	!	!	!	!	!
=36	=36	=36	=36	=36	=36	=36	=36	=36	=36	=36	=36	=36	=36	=36	=36	=36
8AAn/L	.	.	8ee-\	.	8gg\	.	1An\	.	1c\	-lei-	1g\	elei-	1ee-\	-i-	1ee-\	1gg\_<
8BB-/	.	.	4ee-\	.	4gg\	.	.	.	.	.	.	.	.	.	.	.
8C/	.	.	.	.	.	.	.	.	.	.	.	.	.	.	.	.
8BB-/J	.	.	4ee-\	.	4gg\	.	.	.	.	.	.	.	.	.	.	.
8AA/L	.	.	.	.	.	.	.	.	.	.	.	.	.	.	.	.
8C/	.	.	4ee-\	.	4gg\	.	.	.	.	.	.	.	.	.	.	.
8BB-/	.	.	.	.	.	.	.	.	.	.	.	.	.	.	.	.
8C/J	.	.	8ee-\	.	8gg\	.	.	.	.	.	.	.	.	.	.	.
=37	=37	=37	=37	=37	=37	=37	=37	=37	=37	=37	=37	=37	=37	=37	=37	=37
!	!	!	!	!	!	!	!	!	!	!	!	!	!	!	!	!LO:TX:a:t=G
4BB-/	6 4	.	4ee-\	.	4gg\	.	4B-\	-son	4B-\	-son	4g\	-son	4ee-\	-son	4ee-\	4gg\]
*	*	*	*	*	*	*	*	*	*	*	*	*	*	*Xij	*	*
2r	.	.	4r	.	4r	.	4r	.	4r	.	4r	.	4r	.	4r	4r
.	.	.	2r	.	2r	.	2r	.	2r	.	2r	.	4r	.	2r	2r
4r	.	.	.	.	.	.	.	.	.	.	.	.	4r	.	.	.
=38	=38	=38	=38	=38	=38	=38	=38	=38	=38	=38	=38	=38	=38	=38	=38	=38
*	*	*	*tremolo	*	*	*	*	*	*	*	*	*	*	*	*	*
!	!	!	!	!	!	!LO:DY:a	!LO:TX:a:t=9	!	!LO:TX:a:t=9	!	!	!	!LO:TX:a:t=Solo	!	!LO:TX:a:i:t=Solo	!LO:TX:a:t=Solo
4BB-/	5 3	.	8B-/L	.	(8d/L	p	00r	.	00r	.	4.b-\	Chri-	4.dd\	Chri-	4.b-\	4.dd\
.	.	.	8d/	.	8f/)	.	.	.	.	.	.	.	.	.	.	.
4r	.	.	8B-/	.	(8d/	.	.	.	.	.	.	.	.	.	.	.
.	.	.	8d/J	.	8f/J)	.	.	.	.	.	8cc\	.	8ee-\	.	8cc\	8ee-\
4B-\	.	.	8B-/L	.	(8d/L	.	.	.	.	.	4dd\	-ſte	4ff\	-ſte	4dd\	4ff\
.	.	.	8d/	.	8f/)	.	.	.	.	.	.	.	.	.	.	.
4r	.	.	8B-/	.	8d/	.	.	.	.	.	4dd\	e-	4ff\	e-	4dd\	4ff\
.	.	.	8d/J	.	8f/)J	.	.	.	.	.	.	.	.	.	.	.
=39	=39	=39	=39	=39	=39	=39	=39	=39	=39	=39	=39	=39	=39	=39	=39	=39
*	*	*	*	*	*tremolo	*	*	*	*	*	*	*	*	*	*	*
!	!	!	!	!	!	!	!	!	!	!	!	!	!	!	!	!LO:N:vis=4
4r	.	.	8c/L	.	(8e-/L	.	.	.	.	.	4.ee-\	-le-	4.gg\	-le-	4.ee-\	4.gg\
.	.	.	8e-/	.	8g/	.	.	.	.	.	.	.	.	.	.	.
4E-\	6_	.	8c/	.	8e-/	.	.	.	.	.	.	.	.	.	.	.
.	.	.	8e-/J	.	8g/J)	.	.	.	.	.	8dd\	-i-	8ff\	-i-	8dd\	8ff\
4EE-/	.	.	8c/L	.	(8e-/L	.	.	.	.	.	4cc\	-ſon	4ee-\	-son	4cc\	4ee-\
.	.	.	8e-/	.	8g/	.	.	.	.	.	.	.	.	.	.	.
4E-\	.	.	8c/	.	8e-/	.	.	.	.	.	4r	.	4r	.	4r	4r
.	.	.	8e-/J	.	8g/)J	.	.	.	.	.	.	.	.	.	.	.
!	!	!	!	!	!	!	!	!	!	!	!LO:LB:g=original	!	!LO:LB:g=original	!	!	!
=40	=40	=40	=40	=40	=40	=40	=40	=40	=40	=40	=40	=40	=40	=40	=40	=40
4F\	n	.	8An/L	.	(8c/L	.	.	.	.	.	(4.an\	Chri-	4.cc\	Chri-	4.a\	(4.cc\
.	.	.	8c/	.	8e-/	.	.	.	.	.	.	.	.	.	.	.
4r	.	.	8An/	.	8c/	.	.	.	.	.	.	.	.	.	.	.
.	.	.	8c/J	.	8e-/)J	.	.	.	.	.	8b-\)	.	8dd\	.	8b-\	8dd\)
4FF/	.	.	8A/L	.	(8c/L	.	.	.	.	.	4cc\	-ſte	4ee-\	-ſte	4cc\	4ee-\
.	.	.	8c/	.	8e-/	.	.	.	.	.	.	.	.	.	.	.
!LO:TX:t=P:problem= brak pauzy	!	!	!	!	!	!	!	!	!	!	!	!	!	!	!	!
4ryy	.	.	8A/	.	8c/	.	.	.	.	.	4cc\	e-	4ee-\	e-	4cc\	4ee-\
.	.	.	8c/)J	.	8e-/)J	.	.	.	.	.	.	.	.	.	.	.
=41	=41	=41	=41	=41	=41	=41	=41	=41	=41	=41	=41	=41	=41	=41	=41	=41
4r	.	.	8B-/L	.	(8d/L	.	.	.	.	.	4.dd\	-le-	4.ff\	-le-	4.dd\	4.ff\
.	.	.	8d/	.	8f/	.	.	.	.	.	.	.	.	.	.	.
4BB-/	.	.	8B-/	.	8d/	.	.	.	.	.	.	.	.	.	.	.
.	.	.	8d/J	.	8f/)J	.	.	.	.	.	8cc\	-i-	8ee-\	-i-	8cc\	8ee-\
4B-\	.	.	8B-/L	.	(8d/L	.	.	.	.	.	4b-\	-ſon	4dd\	-son	4b-\	4dd\
.	.	.	8d/	.	8f/	.	.	.	.	.	.	.	.	.	.	.
4BB-/	.	.	8B-/	.	8d/	.	.	.	.	.	4r	.	4r	.	4r	4r
.	.	.	8d/J	.	8f/)J	.	.	.	.	.	.	.	.	.	.	.
!	!	!	!LO:LB:g=original	!	!LO:LB:g=original	!	!	!	!	!	!	!	!	!	!	!
=42	=42	=42	=42	=42	=42	=42	=42	=42	=42	=42	=42	=42	=42	=42	=42	=42
!	!	!	!LO:TX:t=P:problem= brak taktu  -powinien byc powtórzony takt 41 eby sie zgadzało z violino primo	!	!	!	!	!	!	!	!	!	!	!	!	!
4B-\	.	.	1ryy	.	(8d/L	.	00r	.	00r	.	4.b-\	Chri-	4.dd\	Chri-	4.b-\	(4.dd\
.	.	.	.	.	8f/	.	.	.	.	.	.	.	.	.	.	.
4BB-/	.	.	.	.	8d/	.	.	.	.	.	.	.	.	.	.	.
.	.	.	.	.	8f/)J	.	.	.	.	.	8cc\	.	8ee-\	.	8cc\	8ee-\)
2r	.	.	.	.	(8d/L	.	.	.	.	.	4dd\	-ſte	4ff\	-ſte	4dd\	4ff\
.	.	.	.	.	8f/	.	.	.	.	.	.	.	.	.	.	.
.	.	.	.	.	8d/	.	.	.	.	.	4dd\	e-	4ff\	e-	4dd\	4ff\
.	.	.	.	.	8f/)J	.	.	.	.	.	.	.	.	.	.	.
!LO:LB:g=original	!	!	!	!	!	!	!	!	!	!	!	!	!	!	!	!
=43	=43	=43	=43	=43	=43	=43	=43	=43	=43	=43	=43	=43	=43	=43	=43	=43
*	*	*	*	*	*	*	*	*	*	*	*	*	*	*	*	*2\right
4r	.	.	8B-/L	.	(8d/L	.	.	.	.	.	(2.dd\	-le-	2.bb-\	-le-	(2.dd\	2.bb-\
.	.	.	8d/	.	8f/	.	.	.	.	.	.	.	.	.	.	.
4B-\	.	.	8B-/	.	8d/	.	.	.	.	.	.	.	.	.	.	.
.	.	.	8d/J	.	8f/)J	.	.	.	.	.	.	.	.	.	.	.
*	*	*	*Xtremolo	*	*Xtremolo	*	*	*	*	*	*	*	*	*	*	*
4BB-/	.	.	8B-/L	.	(8d/L	.	.	.	.	.	.	.	.	.	.	.
.	.	.	8d/	.	8f/	.	.	.	.	.	.	.	.	.	.	.
4E-\	.	.	8c/	.	8e-/	.	.	.	.	.	4ee-\)	-i-	4gg\	-i-	8ee-\L)	4gg\
.	.	.	8e-/J	.	8g/J)	.	.	.	.	.	.	.	.	.	8ee-\J	.
!	!	!	!	!	!	!	!	!	!	!	!	!	!	!	!	!LO:LB:g=original
=44	=44	=44	=44	=44	=44	=44	=44	=44	=44	=44	=44	=44	=44	=44	=44	=44
!	!	!	!	!	!	!	!	!	!	!	!LO:SIC:v:l:s=ſon	!	!	!	!	!
4F\	4	.	8e-/L	.	8g/L	.	.	.	.	.	4.dd\	-ſoo	4.ff\	-son-	(4.dd\	4.ff\
.	.	.	8d/	.	8f/	.	.	.	.	.	.	.	.	.	.	.
4r	.	.	8B-/	.	8d/	.	.	.	.	.	.	.	.	.	.	.
*	*	*	*	*	*	*	*	*	*	*	*	*ij	*	*ij	*	*
.	.	.	8d/J	.	8f/J	.	.	.	.	.	8b-\	e-	8dd\	e-	8b-\)	8dd\
4FF/	n	.	8d/L	.	8f/L	.	.	.	.	.	8dd\L	-le-	(8ff\L	-le-	(8dd\L	8ff\L
.	.	.	8c/	.	8e-/	.	.	.	.	.	8cc\J	.	8ee-\	.	8cc\	8ee-\
4r	.	.	8B-/	.	8d/	.	.	.	.	.	8b-\L	-i-	8dd\)	.	8b-\	8dd\
.	.	.	8An/J	.	8c/J	.	.	.	.	.	8an\J	.	8cc\J	.	8a\J)	8cc\J
*	*	*	*	*	*	*	*	*	*	*	*	*Xij	*	*	*	*
!	!	!	!	!	!	!	!	!	!	!	!	!	!	!	!LO:LB:g=original	!
=45	=45	=45	=45	=45	=45	=45	=45	=45	=45	=45	=45	=45	=45	=45	=45	=45
!	!	!	!LO:SIC:v:s=2An/	!	!	!	!	!	!	!	!	!	!	!	!	!
4r	.	.	2A-/	.	2c/	.	.	.	.	.	(4.f\	son	2cc\	-i-	4.f/	2cc\
4F\	.	.	.	.	.	.	.	.	.	.	.	.	.	.	.	.
.	.	.	.	.	.	.	.	.	.	.	8e-\)	.	.	.	8e-/	.
4B-\	3	.	4B-/	.	4d/	.	.	.	.	.	4d\	.	4b-\	-son	4d/	4b-\
4BB-/	.	.	4r	.	4r	.	.	.	.	.	4r	.	4r	.	4r	4r
*	*	*	*	*	*	*	*	*	*	*	*	*	*	*Xij	*	*
=46	=46	=46	=46	=46	=46	=46	=46	=46	=46	=46	=46	=46	=46	=46	=46	=46
!	!	!	!	!	!	!	!	!	!	!	!	!	!	!	!LO:TX:a:t=9.	!LO:TX:a:t=9.
4B-X\	.	.	4.b-\	.	(4.dd\	mf	1r	.	1r	.	4.b-\	Chri-	4.dd\	Chri-	00r	00r
2r	.	.	.	.	.	.	.	.	.	.	.	.	.	.	.	.
.	.	.	8cc\	.	8ee-\)	.	.	.	.	.	8cc\	.	8ee-\	.	.	.
.	.	.	4b-\	.	4dd\|	.	.	.	.	.	4b-\	.	4dd\	-ſte	.	.
4r	.	.	4b-\	.	4dd\|	.	.	.	.	.	4b-\	-ſte	4dd\	e-	.	.
=47	=47	=47	=47	=47	=47	=47	=47	=47	=47	=47	=47	=47	=47	=47	=47	=47
4B-X\	6_	.	1b-\	.	1dd\	.	4B-\	Chri-	4f\	Ki-	1b-\	e-	1dd\	-lei-	.	.
4A-X\	.	.	.	.	.	.	(4A-\	.	4f\	-riri	.	.	.	.	.	.
4G\	.	.	.	.	.	.	4G\	.	2f\	-e	.	.	.	.	.	.
4F\	.	.	.	.	.	.	4F\)	.	.	.	.	.	.	.	.	.
!	!	!	!	!	!	!	!	!	!	!	!	!	!LO:LB:g=original	!	!	!
=48	=48	=48	=48	=48	=48	=48	=48	=48	=48	=48	=48	=48	=48	=48	=48	=48
4En\	6_ 3_	.	1b-\	.	1cc\	.	4En\	-ſte	4g\	.	1b-\	-lei-	1cc\	-e-	.	.
4C\	.	.	.	.	.	.	4C/	e-	4g\	Ki-	.	.	.	.	.	.
4D\	.	.	.	.	.	.	4D\	-le-	4g\	-ri-	.	.	.	.	.	.
4E\	.	.	.	.	.	.	4E\	-i-	4g\	-e	.	.	.	.	.	.
=49	=49	=49	=49	=49	=49	=49	=49	=49	=49	=49	=49	=49	=49	=49	=49	=49
4F\	- x	.	4.a-\	.	4.cc\	.	4F\	-son	4f\	.	4a-X\	.	4cc\	.	.	.
2r	.	.	.	.	.	.	2r	.	4r	.	8a-\L	.	8cc\L	.	.	.
.	.	.	8b-\	.	8dd\	.	.	.	.	.	8b-\J	.	8dd\J	.	.	.
.	.	.	4a-\	.	4cc\	.	.	.	2r	.	4a-\	-son	4cc\	-son	.	.
4r	.	.	4a-\	.	4cc\	.	4r	.	.	.	4a-\	.	4cc\	.	.	.
=50	=50	=50	=50	=50	=50	=50	=50	=50	=50	=50	=50	=50	=50	=50	=50	=50
4A-\	3_	.	1a-/	.	1cc\	.	4A-\	Chri-	4e-\	Ki-	1a-\	e-	1cc\	e-	00r	00r
4G\	.	.	.	.	.	.	4G\	.	4e-\	-ri-	.	.	.	.	.	.
4F\	.	.	.	.	.	.	4F\	.	2e-\	-e	.	.	.	.	.	.
4E-\	.	.	.	.	.	.	4E-\	.	.	.	.	.	.	.	.	.
=51	=51	=51	=51	=51	=51	=51	=51	=51	=51	=51	=51	=51	=51	=51	=51	=51
4D\	6 5	.	1g/	.	1b-\	.	4D\	-ſte	4f\	.	1a-\	-lei-	1b-\	-lei-	.	.
4BB-/	.	.	.	.	.	.	4BB-/	e-	4f\	e-	.	.	.	.	.	.
4C/	.	.	.	.	.	.	4C/	-le-	4f\	-le-	.	.	.	.	.	.
4D/	.	.	.	.	.	.	4D/	-i-	4f\	-i-	.	.	.	.	.	.
!	!	!	!	!	!LO:LB:g=original	!	!LO:LB:g=original	!	!	!	!	!	!	!	!	!
=52	=52	=52	=52	=52	=52	=52	=52	=52	=52	=52	=52	=52	=52	=52	=52	=52
4E-\	3	.	1g/	.	4b-\	.	4E-\	-son	4e-\	-son	4g\	.	4b-\	.	.	.
2r	.	.	.	.	4a-/	.	4r	.	4r	.	4g\	.	4b-\	-son	.	.
.	.	.	.	.	(4ee-\	.	2r	.	2r	.	4g\	.	4ee-\	.	.	.
4r	.	.	.	.	4dd-X\)	.	.	.	.	.	4g\	.	4dd-X\	e-	.	.
!LO:LB:g=original	!	!	!	!	!	!	!	!	!	!	!	!	!	!	!	!
=53	=53	=53	=53	=53	=53	=53	=53	=53	=53	=53	=53	=53	=53	=53	=53	=53
!	!	!	!	!	!	!	!LO:TX:a:t=10	!	!LO:TX:a:t=10.	!	!	!	!	!	!	!
1D\	7	.	1f/	.	2cc\	.	00r	.	00r	.	1f\	-son	2cc\	-lei-	.	.
.	6 3	.	.	.	4b-\	.	.	.	.	.	.	.	4b-\	.	.	.
.	5	.	.	.	4a-/	.	.	.	.	.	.	.	4a-\	-son	.	.
!	!	!	!LO:LB:g=original	!	!	!	!	!	!	!	!	!	!	!	!	!
=54	=54	=54	=54	=54	=54	=54	=54	=54	=54	=54	=54	=54	=54	=54	=54	=54
*	*	*	*	*	*	*	*	*	*	*	*	*ij	*	*	*	*
1E-\	3	.	4.e-/	.	4.g/	.	.	.	.	.	(4.e-\	e-	4.g\	Chri-	1r	1r
.	.	.	8g/	.	8b-\	.	.	.	.	.	8g\)	.	8a-\	.	.	.
.	.	.	8a-/L	.	8cc\L	.	.	.	.	.	8a-\L	.	8cc\L	-ſte	.	.
.	.	.	8g/	.	8b-\	.	.	.	.	.	8g\J	.	8b-\J	.	.	.
.	.	.	8f/	.	8a-\	.	.	.	.	.	8f\L	.	8a-\L	e-	.	.
.	.	.	8e-/J	.	8g\J	.	.	.	.	.	8e-\J	.	8g\J	.	.	.
=55	=55	=55	=55	=55	=55	=55	=55	=55	=55	=55	=55	=55	=55	=55	=55	=55
4B-\	4	.	4.g/	.	4.b-\	.	.	.	.	.	4.g\	-lei-	4.b-\	-le-	2r	2r
4BB-/	.	.	.	.	.	.	.	.	.	.	.	.	.	.	.	.
.	.	.	8e-/	.	8g\	.	.	.	.	.	8e-\	.	8g\	-i-	.	.
4B-\	3	.	4d/	.	4f/	.	.	.	.	.	8d\	-son	4f/	-son	4r	4r
*	*	*	*	*	*	*	*	*	*	*	*	*Xij	*	*	*	*
.	.	.	.	.	.	.	.	.	.	.	8r	.	.	.	.	.
!	!	!	!	!	!	!	!	!	!	!	!	!	!	!	!LO:TX:a:i:t=Solo	!LO:TX:a:i:t=Solo
4r	.	.	4r	.	4r	.	.	.	.	.	4r	.	4r	.	4b-\	4b-\
=56	=56	=56	=56	=56	=56	=56	=56	=56	=56	=56	=56	=56	=56	=56	=56	=56
!	!	!LO:DY:a	!	!	!	!	!	!	!	!	!LO:TX:a:t=7.	!	!LO:TX:a:t=7.	!	!	!
4E-\	.	p	8B-/L	.	8B-/L	.	.	.	.	.	00r	.	00r	.	4.gg\	4.bb-\
.	.	.	8e-/	.	8e-/	.	.	.	.	.	.	.	.	.	.	.
2r	.	.	8g/	.	8g/	.	.	.	.	.	.	.	.	.	.	.
.	.	.	8e-/J	.	8e-/J	.	.	.	.	.	.	.	.	.	8ff\	8aa-\
*	*	*	*rep	*	*	*	*	*	*	*	*	*	*	*	*	*
.	.	.	8B-/L	.	8B-/L	.	.	.	.	.	.	.	.	.	4ee-\	4gg\
.	.	.	8e-/	.	8e-/	.	.	.	.	.	.	.	.	.	.	.
4r	.	.	8g/	.	8g/	.	.	.	.	.	.	.	.	.	4ee-\	4gg\
.	.	.	8e-/J	.	8e-/J	.	.	.	.	.	.	.	.	.	.	.
*	*	*	*Xrep	*	*	*	*	*	*	*	*	*	*	*	*	*
=57	=57	=57	=57	=57	=57	=57	=57	=57	=57	=57	=57	=57	=57	=57	=57	=57
4B-\	4	.	8B-/L	.	(8B-/L	.	00r	.	00r	.	.	.	.	.	4.ee-\	4.gg\
.	.	.	8e-/	.	8e-/	.	.	.	.	.	.	.	.	.	.	.
4r	.	.	8g/	.	8g/	.	.	.	.	.	.	.	.	.	.	.
.	.	.	8e-/J	.	8e-/J)	.	.	.	.	.	.	.	.	.	16ff\LL	16aa-\LL
.	.	.	.	.	.	.	.	.	.	.	.	.	.	.	16ee-\JJ	16gg\JJ
4BB-/	3	.	8B-/L	.	(8B-/L	.	.	.	.	.	.	.	.	.	4dd\	4ff\
.	.	.	8d/	.	8d/	.	.	.	.	.	.	.	.	.	.	.
4r	.	.	8f/	.	8f/	.	.	.	.	.	.	.	.	.	4r	4r
.	.	.	8d/J	.	8d/J)	.	.	.	.	.	.	.	.	.	.	.
!	!	!	!	!	!LO:LB:g=original	!	!	!	!	!	!	!	!	!	!	!
=58	=58	=58	=58	=58	=58	=58	=58	=58	=58	=58	=58	=58	=58	=58	=58	=58
4B-\	.	.	8B-/L	.	8B-/L	.	.	.	.	.	.	.	.	.	4.ff\	4.aa-\
.	.	.	8d/	.	8d/	.	.	.	.	.	.	.	.	.	.	.
2r	.	.	8f/	.	8f/	.	.	.	.	.	.	.	.	.	.	.
.	.	.	8d/J	.	8d/J	.	.	.	.	.	.	.	.	.	8ee-\	8gg\
*	*	*	*rep	*	*	*	*	*	*	*	*	*	*	*	*	*
.	.	.	8B-/L	.	8B-/L	.	.	.	.	.	.	.	.	.	4dd\	4ff\
.	.	.	8d/	.	8d/	.	.	.	.	.	.	.	.	.	.	.
4r	.	.	8f/	.	8f/	.	.	.	.	.	.	.	.	.	4dd\	4ff\
.	.	.	8d/J	.	8d/J	.	.	.	.	.	.	.	.	.	.	.
*	*	*	*Xrep	*	*	*	*	*	*	*	*	*	*	*	*	*
=59	=59	=59	=59	=59	=59	=59	=59	=59	=59	=59	=59	=59	=59	=59	=59	=59
4E-\	4	.	8B-/L	.	8B-/L	.	.	.	.	.	.	.	.	.	4.a-\	4.ff\
.	.	.	8d/	.	8d/	.	.	.	.	.	.	.	.	.	.	.
4r	.	.	8f/	.	8f/	.	.	.	.	.	.	.	.	.	.	.
.	.	.	8d/J	.	8d/J	.	.	.	.	.	.	.	.	.	16b-\LL	16gg\LL
.	.	.	.	.	.	.	.	.	.	.	.	.	.	.	16a-\JJ	16ff\JJ
4EE-/	.	.	8B-/L	.	8B-/L	.	.	.	.	.	.	.	.	.	4g/	4ee-\
.	.	.	8e-/	.	8e-/	.	.	.	.	.	.	.	.	.	.	.
4r	.	.	8g/	.	8g/	.	.	.	.	.	.	.	.	.	4r	4r
.	.	.	8e-/J	.	8e-/J	.	.	.	.	.	.	.	.	.	.	.
=60	=60	=60	=60	=60	=60	=60	=60	=60	=60	=60	=60	=60	=60	=60	=60	=60
4E-\	.	.	8B-/L	.	8B-/L	.	.	.	.	.	0r	.	0r	.	4g/	4.ee-\
.	.	.	8e-/	.	8e-/	.	.	.	.	.	.	.	.	.	.	.
2r	.	.	8g/	.	8g/	.	.	.	.	.	.	.	.	.	4b-\	.
.	.	.	8e-/J	.	8e-/J	.	.	.	.	.	.	.	.	.	.	8ff\
*	*	*	*rep	*	*rep	*	*	*	*	*	*	*	*	*	*	*
.	.	.	8B-/L	.	8B-/L	.	.	.	.	.	.	.	.	.	4ee-\	4gg\
.	.	.	8e-/	.	8e-/	.	.	.	.	.	.	.	.	.	.	.
4r	.	.	8g/	.	8g/	.	.	.	.	.	.	.	.	.	4ee-\	4gg\
.	.	.	8e-/J	.	8e-/J	.	.	.	.	.	.	.	.	.	.	.
*	*	*	*Xrep	*	*Xrep	*	*	*	*	*	*	*	*	*	*	*
!	!	!	!LO:LB:g=original	!	!	!	!	!	!	!	!	!	!	!	!	!LO:LB:g=original
=61	=61	=61	=61	=61	=61	=61	=61	=61	=61	=61	=61	=61	=61	=61	=61	=61
4r	.	.	8c/L	.	8c/L	.	0r	.	0r	.	.	.	.	.	2ff\	2aa-\
.	.	.	8f/	.	8f/	.	.	.	.	.	.	.	.	.	.	.
4A-\	6_	.	8a-/	.	8a-/	.	.	.	.	.	.	.	.	.	.	.
.	.	.	8f/J	.	8f/J	.	.	.	.	.	.	.	.	.	.	.
*	*	*	*rep	*	*rep	*	*	*	*	*	*	*	*	*	*	*
4AA-/	.	.	8c/L	.	8c/L	.	.	.	.	.	.	.	.	.	4aa-\	(4ccc\
.	.	.	8f/	.	8f/	.	.	.	.	.	.	.	.	.	.	.
4A-\	.	.	8a-/	.	8a-/	.	.	.	.	.	.	.	.	.	4ff\	4aa-\)
.	.	.	8f/J	.	8f/J	.	.	.	.	.	.	.	.	.	.	.
*	*	*	*Xrep	*	*Xrep	*	*	*	*	*	*	*	*	*	*	*
=62	=62	=62	=62	=62	=62	=62	=62	=62	=62	=62	=62	=62	=62	=62	=62	=62
4B-\	4	.	8B-/L	.	8B-/L	.	.	.	.	.	1r	.	1r	.	4ee-\	4gg\
.	.	.	8e-/	.	8e-/	.	.	.	.	.	.	.	.	.	.	.
4r	.	.	8g/	.	8g/	.	.	.	.	.	.	.	.	.	4b-\	4gg\
.	.	.	8e-/J	.	8e-/J	.	.	.	.	.	.	.	.	.	.	.
4BB-/	.	.	8B-/L	.	8B-/L	.	.	.	.	.	.	.	.	.	8a-\L	8ff\L
.	.	.	8d/	.	8d/	.	.	.	.	.	.	.	.	.	8g\	8ee-\
4r	.	.	8f/	.	8f/	.	.	.	.	.	.	.	.	.	8a-\	8ff\
.	.	.	8d/J	.	8d/J	.	.	.	.	.	.	.	.	.	8b-\J	(<8gg\J
!	!	!	!	!	!	!	!	!	!	!	!	!	!	!	!LO:LB:g=original	!
=63	=63	=63	=63	=63	=63	=63	=63	=63	=63	=63	=63	=63	=63	=63	=63	=63
*tremolo	*	*	*tremolo	*	*	*	*	*	*	*	*	*	*	*	*	*
!LO:TX:a:i:t=Tutti	!	!	!	!	!	!	!	!	!	!	!LO:TX:t=P:problem=łamanie linii w takcie	!	!LO:TX:t=P:problem=łamanie linii w takcie	!	!	!
8E-\L	.	.	8g/ 8B-/L	.	2e-/	.	2E-\	Kÿ-	2B-\	Chri	2g\	Kÿ-	2ee-\	e-	1g/	1ee-\)
8E-\	.	.	8g/ 8B-/	.	.	.	.	.	.	.	.	.	.	.	.	.
8E-\	.	.	8g/ 8B-/	.	.	.	.	.	.	.	.	.	.	.	.	.
8E-\J	.	.	8g/ 8B-/J	.	.	.	.	.	.	.	.	.	.	.	.	.
!	!	!	!	!	!	!	!	!	!	!	!LO:LB:g=original	!	!LO:LB:g=original	!	!	!
8E-\L	.	.	8g/ 8B-/L	.	4g/	.	4E-\	.	4B-\	.	4g\	-ri-	4ee-\	-lei-	.	.
8E-\	.	.	8g/ 8B-/	.	.	.	.	.	.	.	.	.	.	.	.	.
8E-\	.	.	8g/ 8B-/	.	4b-/	.	4E-\	-ri-	4B-\	.	4g\	-e	4ee-\	.	.	.
8E-\J	.	.	8g/ 8B-/J	.	.	.	.	.	.	.	.	.	.	.	.	.
!	!	!	!	!	!LO:LB:g=original	!	!	!	!LO:LB:g=original	!	!	!	!	!	!	!
=64	=64	=64	=64	=64	=64	=64	=64	=64	=64	=64	=64	=64	=64	=64	=64	=64
8E-\L	.	.	8g/L	.	(4.ee-\	.	4.E-\	-e	4.B-\	ſte	4.g\	e-	4.ee-\	-son	2g/	2.ee-\
8E-\	.	.	8g/	.	.	.	.	.	.	.	.	.	.	.	.	.
8E-\	.	.	8g/	.	.	.	.	.	.	.	.	.	.	.	.	.
8E-\J	.	.	8g/J	.	8gg\)	.	8E-\	.	8B-\	.	8g\	-le-	8ee-\	.	.	.
8E-\L	7- 5	.	8a-/L	.	4.ee-\	.	4E-\	e-	4B-\	e-	4g\	-i-	4ee-\	.	2b-\	.
8E-\	.	.	8a-/	.	.	.	.	.	.	.	.	.	.	.	.	.
8E-\	.	.	8a-/	.	.	.	4E-\	-le-	4e-\	-le-	4b-\	-son	4dd-X\	e-	.	4dd-X\
8E-\J	.	.	8a-/J	.	8dd-X\	.	.	.	.	.	.	.	.	.	.	.
!LO:LB:g=original	!	!	!	!	!	!	!	!	!	!	!	!	!	!	!	!
=65	=65	=65	=65	=65	=65	=65	=65	=65	=65	=65	=65	=65	=65	=65	=65	=65
*	*	*	*	*	*	*	*	*	*	*	*	*ij	*	*	*	*
8E-\L	6 4	.	8a-/L	.	4cc\	.	2E-\	-i-	2e-\	-i-	2a-\	Kÿ-	2cc\	-lei-	2a-/	2cc\
8E-\	.	.	8a-/	.	.	.	.	.	.	.	.	.	.	.	.	.
8E-\	.	.	8a-/	.	4aa-\	.	.	.	.	.	.	.	.	.	.	.
8E-\J	.	.	8a-/J	.	.	.	.	.	.	.	.	.	.	.	.	.
8E-\L	7n 2	.	8f/L	.	4ff\	.	4E-\	-son	4e-\	-ſon	4f\	-ri-	4dd\	-son	2f/	2dd\
8E-\	.	.	8f/	.	.	.	.	.	.	.	.	.	.	.	.	.
8E-\	.	.	8f/	.	4ddn\	.	4E-\	.	4e-\	.	4f\	-e	4dd\	.	.	.
8E-\J	.	.	8f/J	.	.	.	.	.	.	.	.	.	.	.	.	.
=66	=66	=66	=66	=66	=66	=66	=66	=66	=66	=66	=66	=66	=66	=66	=66	=66
*	*	*	*	*	*	*	*	*ij	*	*	*	*	*	*	*	*
8E-\L	3	.	8g/L	.	4.ee-\	.	2E-\	Kÿ-	4e-\	e-	2g\	e-	2ee-\	.	2g/	2.ee-\
8E-\	.	.	8g/	.	.	.	.	.	.	.	.	.	.	.	.	.
8E-\	.	.	8g/	.	.	.	.	.	4e-\	-le-	.	.	.	.	.	.
8E-\J	.	.	8g/J	.	8gg\	.	.	.	.	.	.	.	.	.	.	.
!	!	!	!	!	!LO:ACC:color=grey	!	!	!	!	!	!	!	!	!	!	!
8E-\L	7- 5	.	8a-/L	.	4ee-X\	.	4E-\	-ri-	2e-\	-i-	4g\	-lei-	4ee-\	e-	2b-\	.
8E-\	.	.	8a-/	.	.	.	.	.	.	.	.	.	.	.	.	.
8E-\	.	.	8a-/	.	4dd-X\	.	4E-\	-e	.	.	4b-\	-son	4dd-X\	-lei-	.	4dd-X\
8E-\J	.	.	8a-/J	.	.	.	.	.	.	.	.	.	.	.	.	.
*	*	*	*	*	*	*	*	*	*	*	*	*Xij	*	*	*	*
=67	=67	=67	=67	=67	=67	=67	=67	=67	=67	=67	=67	=67	=67	=67	=67	=67
8E-\L	6 4	.	8a-/L	.	4cc\	.	4E-\	e-	4e-\	.	4a-\	e-	4cc\	-son	2a-/	2cc\
8E-\	.	.	8a-/	.	.	.	.	.	.	.	.	.	.	.	.	.
*	*	*	*	*	*	*	*	*	*	*	*	*	*	*ij	*	*
8E-\	.	.	8a-/	.	4aa-\	.	4E-\	-le-	4e-\	-son	4a-\	-lei-	4cc\	e-	.	.
8E-\J	.	.	8a-/J	.	.	.	.	.	.	.	.	.	.	.	.	.
8E-\L	7n 2	.	8f/L	.	4ff\	.	2E-\	-i-	2e-\	.	2f\	.	2ddn\	-lei-	2f/	2ddn\
8E-\	.	.	8f/	.	.	.	.	.	.	.	.	.	.	.	.	.
8E-\	.	.	8f/	.	4ddn\	.	.	.	.	.	.	.	.	.	.	.
8E-\J	.	.	8f/J	.	.	.	.	.	.	.	.	.	.	.	.	.
*Xtremolo	*	*	*Xtremolo	*	*	*	*	*	*	*	*	*	*	*	*	*
=68	=68	=68	=68	=68	=68	=68	=68	=68	=68	=68	=68	=68	=68	=68	=68	=68
!LO:TX:t=P:problem= dodatkowa pauza	!	!	!	!	!	!	!	!	!	!	!	!	!	!	!	!
4E-\	5 3	.	4g/	.	4ee-\	.	4E-\	-son	4e-\	.	4g\	-son	4ee-\	-son	4g/	4ee-\
*	*	*	*	*	*	*	*	*Xij	*	*	*	*	*	*Xij	*	*
4EE-/	.	.	4r	.	4r	.	2r	.	4r	.	4r	.	4r	.	4r	4r
!	!	!LO:DY:a:t=p	!	!	!	!	!	!	!	!	!	!	!	!	!	!
4r	.	p	8d/L	.	(8.dd\L	.	.	.	2r	.	2r	.	2r	.	2r	2r
.	.	.	8e-/	.	.	.	.	.	.	.	.	.	.	.	.	.
.	.	.	.	.	16ee-\K	.	.	.	.	.	.	.	.	.	.	.
4G\	6	.	8d/	.	8.dd\	.	4r	.	.	.	.	.	.	.	.	.
.	.	.	8e-/J	.	.	.	.	.	.	.	.	.	.	.	.	.
.	.	.	.	.	16ee-\Jk)	.	.	.	.	.	.	.	.	.	.	.
!	!	!	!LO:LB:g=original	!	!	!	!	!	!	!	!	!	!	!	!	!
=69	=69	=69	=69	=69	=69	=69	=69	=69	=69	=69	=69	=69	=69	=69	=69	=69
!	!	!	!	!	!	!	!LO:TX:a:t=7	!	!LO:TX:a:t=1.	!	!LO:TX:a:t=1.	!	!LO:TX:a:t=7.	!	!LO:TX:a:t=1.	!LO:TX:a:t=1.
4A-\	.	.	8Bn/L	.	16bn\KL	.	00r	.	1r	.	1r	.	00r	.	1r	1r
.	.	.	.	.	8.cc\J	.	.	.	.	.	.	.	.	.	.	.
.	.	.	8c/J	.	.	.	.	.	.	.	.	.	.	.	.	.
4A-\	.	.	4r	.	4r	.	.	.	.	.	.	.	.	.	.	.
4r	.	.	8d/L	.	(8.dd\L	.	.	.	.	.	.	.	.	.	.	.
.	.	.	8e-/	.	.	.	.	.	.	.	.	.	.	.	.	.
.	.	.	.	.	16ee-\K)	.	.	.	.	.	.	.	.	.	.	.
4A-\	.	.	8d/	.	(8.dd\	.	.	.	.	.	.	.	.	.	.	.
.	.	.	8e-/J	.	.	.	.	.	.	.	.	.	.	.	.	.
.	.	.	.	.	16ee-\Jk)	.	.	.	.	.	.	.	.	.	.	.
=70	=70	=70	=70	=70	=70	=70	=70	=70	=70	=70	=70	=70	=70	=70	=70	=70
4G\	.	.	8An/L	.	16an\KL	.	.	.	2r	.	2r	.	.	.	2r	2r
.	.	.	.	.	8.b-\J	.	.	.	.	.	.	.	.	.	.	.
.	.	.	8B-/J	.	.	.	.	.	.	.	.	.	.	.	.	.
4G\	.	.	4r	.	4r	.	.	.	.	.	.	.	.	.	.	.
!	!	!	!	!	!	!	!	!	!LO:TX:a:t=Solo	!	!	!	!	!	!	!
2r	.	.	2r	.	2r	.	.	.	4g\	Chri-	4b-\	Kÿ-	.	.	4gg\	4bb-\
.	.	.	.	.	.	.	.	.	4g\	.	4b-\	.	.	.	4gg\	4bb-\
!	!	!	!	!	!LO:LB:g=original	!	!	!	!	!	!	!	!	!	!	!
=71	=71	=71	=71	=71	=71	=71	=71	=71	=71	=71	=71	=71	=71	=71	=71	=71
!	!	!	!	!	!	!	!	!	!	!	!	!	!	!	!LO:N:vis=4	!
4r	.	.	4r	.	4r	.	.	.	4.g\	.	4.b-\	-rie	.	.	4.gg\	4.bb-\
4E-\	.	.	4e-/	.	8g/L	.	.	.	.	.	.	.	.	.	.	.
.	.	.	.	.	8a-/J	.	.	.	8a-\	.	8cc\	.	.	.	8aa-\	8ccc\
4B-\	4	.	4e-/	.	4g/	.	.	.	4g\	-ſte	4b-\	e-	.	.	4gg\	4bb-\
4BB-/	3	.	4d/	.	4f/	.	.	.	4f\	e-	4a-\	-lei-	.	.	4aa-\	4aa-\
=72	=72	=72	=72	=72	=72	=72	=72	=72	=72	=72	=72	=72	=72	=72	=72	=72
!LO:TX:t=P:4\right:problem	!	!	!	!	!	!	!	!	!	!	!	!	!	!	!	!
4E-\	9	.	4B-/	.	4f/	.	.	.	4f\	-lei-	4a-\	-ſon	.	.	4ff\	4aa-\
.	8	.	.	.	.	.	.	.	.	.	.	.	.	.	.	.
4EE-/	.	.	4B-/	.	4e-/	.	.	.	4e-\	-son	4g\	.	.	.	4ee-\	4gg\
!	!	!	!	!	!LO:TX:t=P:problem=8\right	!	!	!	!	!	!	!	!	!	!	!
4r	.	.	8.d/L	.	8.dd\L	.	.	.	2r	.	2r	.	.	.	2r	2r
!	!	!	!	!	!LO:TX:t=P:problem=16\right	!	!	!	!	!	!	!	!	!	!	!
.	.	.	16e-/K	.	16ee-\K	.	.	.	.	.	.	.	.	.	.	.
!	!	!	!	!	!LO:TX:t=P:problem=8\right	!	!	!	!	!	!	!	!	!	!	!
4G\	6	.	8.d/	.	8.dd\	.	.	.	.	.	.	.	.	.	.	.
!	!	!	!	!	!LO:TX:t=P:problem=16\right	!	!	!	!	!	!	!	!	!	!	!
.	.	.	16e-/Jk	.	16ee-\Jk	.	.	.	.	.	.	.	.	.	.	.
!	!	!	!	!	!	!	!	!	!	!	!LO:LB:g=original	!	!	!	!	!LO:LB:g=original
=73	=73	=73	=73	=73	=73	=73	=73	=73	=73	=73	=73	=73	=73	=73	=73	=73
!	!	!	!	!	!	!	!	!	!LO:TX:a:t=1.	!	!LO:TX:a:t=1.	!	!	!	!LO:TX:a:t=1.	!LO:TX:a:t=1.
4A-\	.	.	8Bn/L	.	16bn\KL	.	0r	.	1r	.	1r	.	0r	.	1r	1r
.	.	.	.	.	8.cc\J	.	.	.	.	.	.	.	.	.	.	.
.	.	.	8c/J	.	.	.	.	.	.	.	.	.	.	.	.	.
4A-\	.	.	4r	.	4r	.	.	.	.	.	.	.	.	.	.	.
4r	.	.	8.d/L	.	8.dd\L	.	.	.	.	.	.	.	.	.	.	.
.	.	.	16e-/K	.	16ee-\K	.	.	.	.	.	.	.	.	.	.	.
4A-\	.	.	8.d/	.	8.dd\	.	.	.	.	.	.	.	.	.	.	.
.	.	.	16e-/Jk	.	16ee-\Jk	.	.	.	.	.	.	.	.	.	.	.
=74	=74	=74	=74	=74	=74	=74	=74	=74	=74	=74	=74	=74	=74	=74	=74	=74
4G\	.	.	8An/L	.	16an\KL	.	.	.	2r	.	2r	.	.	.	2r	2r
.	.	.	.	.	8.b-\J	.	.	.	.	.	.	.	.	.	.	.
.	.	.	8B-/J	.	.	.	.	.	.	.	.	.	.	.	.	.
4G\	.	.	4r	.	4r	.	.	.	.	.	.	.	.	.	.	.
2r	.	.	2r	.	2r	.	.	.	4g\	Chri-	4b-\	Ky-	.	.	4gg\	4bb-\
.	.	.	.	.	.	.	.	.	4g\	.	4b-\	.	.	.	4gg\	4bb-\
=75	=75	=75	=75	=75	=75	=75	=75	=75	=75	=75	=75	=75	=75	=75	=75	=75
4r	.	.	4r	.	4r	.	1r	.	4.a-\	.	4.cc\	-rie	1r	.	4.aa-\	4.ccc\
4A-\	6	.	4f/	.	4a-/	.	.	.	.	.	.	.	.	.	.	.
.	.	.	.	.	.	.	.	.	8f\	.	8b-\	.	.	.	8ff\	8aa-\
4B-\	4	.	4d/	.	4f/	.	.	.	4d\	-ſte	4f\	e-	.	.	4dd\	4ff\
4BB-/	3	.	8c/L	.	8e-/L	.	.	.	4d\	e-	4f\	.	.	.	8cc\L	8ee-\L
.	.	.	8d/J	.	8f/J	.	.	.	.	.	.	.	.	.	8dd\J	8ff\J
!LO:LB:g=original	!	!	!LO:LB:g=original	!	!	!	!	!	!LO:LB:g=original	!	!	!	!	!	!LO:LB:g=original	!
=76	=76	=76	=76	=76	=76	=76	=76	=76	=76	=76	=76	=76	=76	=76	=76	=76
!LO:TX:a:i:t=Tutti	!	!	!	!	!	!	!	!	!	!	!	!	!	!	!	!
4E-\	.	.	4e-/	.	4g/	.	2r	.	4e-\	-le-	4g\	.	2r	.	4ee-\	4gg\
4EE-/	.	.	4e-/	.	4g/	.	.	.	4e-\	-i-	4g\	-lei-	.	.	4ee-\	4gg\
*tremolo	*	*	*	*	*	*	*	*	*	*	*	*	*	*	*	*
8G\L	6	.	4r	.	4r	.	2G\	Ki-	2e-\	-son	2g\	.	2b-\	Ky-	2b-\	(<2gg\
8G\	.	.	.	.	.	.	.	.	.	.	.	.	.	.	.	.
8G\	.	.	8g/L	.	8gg\L	.	.	.	.	.	.	.	.	.	.	.
8G\J	.	.	8e-/J	.	8ee-\J	.	.	.	.	.	.	.	.	.	.	.
=77	=77	=77	=77	=77	=77	=77	=77	=77	=77	=77	=77	=77	=77	=77	=77	=77
8A-\L	6	.	8en/L	.	8een\L	.	2A-\	-rie	2c\	.	2f\	.	2cc\	-ri-	2cc\	(<1ff\)
8A-\	.	.	8f/J	.	8ff\J	.	.	.	.	.	.	.	.	.	.	.
8A-\	.	.	2f/	.	2ff\	.	.	.	.	.	.	.	.	.	.	.
8A-\J	.	.	.	.	.	.	.	.	.	.	.	.	.	.	.	.
*	*	*	*	*	*	*	*	*	*	*ij	*	*	*	*	*	*
8B-\L	.	.	.	.	.	.	2B-\	.	2B-\	Chri-	2f\	-ſon	2dd\	.	2dd\	.
8B-\	.	.	.	.	.	.	.	.	.	.	.	.	.	.	.	.
8B-\	.	.	8a-/L	.	8aa-\L	.	.	.	.	.	.	.	.	.	.	.
8B-\J	.	.	8f/J	.	8ff\J	.	.	.	.	.	.	.	.	.	.	.
!	!	!	!	!	!LO:LB:g=original	!	!	!	!	!	!	!	!	!	!	!
=78	=78	=78	=78	=78	=78	=78	=78	=78	=78	=78	=78	=78	=78	=78	=78	=78
*	*	*	*	*	*	*	*	*	*	*	*	*ij	*	*	*	*
!	!	!	!	!	!	!	!	!	!	!	!	!	!LO:TX:t=P:problem=łamanie linii w takcie	!	!	!
8c\L	.	.	8d/L	.	8dd\L	.	2c\	e-	2c\	-ſte	2g\	Ky-	2ee-\	-e	2ee-\	(<1gg\)
8c\	.	.	8e-X/J	.	8ee-X\J	.	.	.	.	.	.	.	.	.	.	.
8c\	.	.	4e-/	.	4ee-\	.	.	.	.	.	.	.	.	.	.	.
8c\J	.	.	.	.	.	.	.	.	.	.	.	.	.	.	.	.
!	!	!	!	!	!	!	!	!	!	!	!	!	!LO:LB:g=original	!	!	!
8G\L	6	.	4r	.	4r	.	4G\	-lei-	4e-\	e-	4g\	-ri-	4b-\	e-	2b-\	.
8G\	.	.	.	.	.	.	.	.	.	.	.	.	.	.	.	.
8G\	.	.	8g/L	.	8gg\L	.	4G\	.	4e-\	-le-	4g\	-e	4b-\	.	.	.
8G\J	.	.	8e-/J	.	8ee-\J	.	.	.	.	.	.	.	.	.	.	.
=79	=79	=79	=79	=79	=79	=79	=79	=79	=79	=79	=79	=79	=79	=79	=79	=79
8A-\L	6	.	8en/L	.	8een\L	.	2A-\	-son	2c\	-i-	2f\	e-	2cc\	.	2cc\	(<1ff\)
8A-\	.	.	8f/J	.	8ff\J	.	.	.	.	.	.	.	.	.	.	.
8A-\	.	.	4.f/	.	4.ff\	.	.	.	.	.	.	.	.	.	.	.
8A-\J	.	.	.	.	.	.	.	.	.	.	.	.	.	.	.	.
8B-\L	.	.	.	.	.	.	4B-\	.	4B-\	-son	4f\	-lei-	4dd\	-lei-	2dd\	.
8B-\	.	.	8g/L	.	8gg\L	.	.	.	.	.	.	.	.	.	.	.
8B-\	.	.	8a-/	.	8aa-\	.	4B-\	.	4B-\	.	4f\	-ſon	4dd\	.	.	.
8B-\J	.	.	8f/J	.	8ff\J	.	.	.	.	.	.	.	.	.	.	.
!	!	!	!	!	!	!	!LO:LB:g=original	!	!	!	!	!	!	!	!	!
=80	=80	=80	=80	=80	=80	=80	=80	=80	=80	=80	=80	=80	=80	=80	=80	=80
*	*	*	*	*	*	*	*	*ij	*	*	*	*	*	*	*	*
8c\L	.	.	8d/L	.	8dd\L	.	2c\	e-	2c\	Chri-	2g\	Ky-	2ee-\	.	2ee-\	2gg\)
8c\	.	.	8e-/J	.	8ee-X\J	.	.	.	.	.	.	.	.	.	.	.
8c\	.	.	4e-/	.	4ee-\	.	.	.	.	.	.	.	.	.	.	.
8c\J	.	.	.	.	.	.	.	.	.	.	.	.	.	.	.	.
8G\L	.	.	4r	.	4r	.	4G\	-lei-	4B-\	-ſte	4b-\	-ri-	4ee-\	-ſon	2b-\	[<2ee-\
8G\	.	.	.	.	.	.	.	.	.	.	.	.	.	.	.	.
8G\	.	.	8e-/L	.	8ee-\L	.	4G\	.	4B-\	e-	4b-\	-e	4ee-\	.	.	.
8G\J	.	.	8d-X/J	.	8dd-X\J	.	.	.	.	.	.	.	.	.	.	.
=81	=81	=81	=81	=81	=81	=81	=81	=81	=81	=81	=81	=81	=81	=81	=81	=81
8A-\L	.	.	8d/L	.	8dd\L	.	2A-\	-son	2A-\	-le-	2cc\	e-	2ee-\	.	1cc\	1ee-\_<
8A-\	.	.	8c/J	.	8cc\J	.	.	.	.	.	.	.	.	.	.	.
8A-\	.	.	2e-/	.	2ee-\	.	.	.	.	.	.	.	.	.	.	.
8A-\J	.	.	.	.	.	.	.	.	.	.	.	.	.	.	.	.
8A-\L	.	.	.	.	.	.	4A-\	.	4A-\	-i-	4cc\	-le-	4ee-\	e-	.	.
8A-\	.	.	.	.	.	.	.	.	.	.	.	.	.	.	.	.
8A-\	.	.	8d/L	.	8dd\L	.	4A-\	.	4A-\	-son	4cc\	-i-	4ee-\	-lei-	.	.
8A-\J	.	.	8c/J	.	8cc\J	.	.	.	.	.	.	.	.	.	.	.
*	*	*	*	*	*	*	*	*	*	*Xij	*	*	*	*	*	*
!	!	!	!LO:LB:g=original	!	!	!	!	!	!	!	!	!	!	!	!	!
=82	=82	=82	=82	=82	=82	=82	=82	=82	=82	=82	=82	=82	=82	=82	=82	=82
8G\L	6_	.	8c/L	.	8cc\L	.	2G\	e-	2B-\	Kÿ-	2b-\	-ſon	2ee-\	.	1b-\	1ee-\]
*	*	*	*	*	*	*	*	*	*	*	*	*Xij	*	*	*	*
8G\	.	.	8B-/J	.	8b-\J	.	.	.	.	.	.	.	.	.	.	.
8G\	.	.	4.e-/	.	4.ee-\	.	.	.	.	.	.	.	.	.	.	.
8G\J	.	.	.	.	.	.	.	.	.	.	.	.	.	.	.	.
8G\L	.	.	.	.	.	.	2G\	-lei-	2e-\	.	2b-\	e-	4ee-\	.	.	.
8G\	.	.	8f/L	.	8ff\L	.	.	.	.	.	.	.	.	.	.	.
8G\	.	.	8g/	.	8gg\	.	.	.	.	.	.	.	4ee-\	.	.	.
8G\J	.	.	8e-/J	.	8ee-\J	.	.	.	.	.	.	.	.	.	.	.
!	!	!	!	!	!	!	!	!	!	!	!LO:LB:g=original	!	!	!	!	!
=83	=83	=83	=83	=83	=83	=83	=83	=83	=83	=83	=83	=83	=83	=83	=83	=83
!	!	!	!	!	!	!	!	!	!	!	!	!	!	!	!LO:TX:a:i:t=Solo	!LO:TX:a:i:t=Solo
8B-\L	6	.	4f/	.	8ff\L	.	2A-\	-son	2c\	-rie	2a-\	-lei-	2ff\	.	4cc\	4ff\
8B-\	.	.	.	.	8aa-\	.	.	.	.	.	.	.	.	.	.	.
8B-\	.	.	4a-/	.	8cc\	.	.	.	.	.	.	.	.	.	4ff\	4aa-\
8B-\J	.	.	.	.	8ff\J	.	.	.	.	.	.	.	.	.	.	.
*Xtremolo	*	*	*	*	*	*	*	*Xij	*	*	*	*	*	*	*	*
8B-\L	4	.	4g/	.	4ee-\	.	4B-\	e-	2B-\	.	(4g\	.	4ee-\	.	4ee-\	4gg\
8B-\	.	.	.	.	.	.	.	.	.	.	.	.	.	.	.	.
8BB-\	3	.	4f/	.	4dd\	.	4BB-/	-lei-	.	.	4f\)	.	4dd\	.	4dd\	4ff\
8BB-\J	.	.	.	.	.	.	.	.	.	.	.	.	.	.	.	.
=84	=84	=84	=84	=84	=84	=84	=84	=84	=84	=84	=84	=84	=84	=84	=84	=84
4E-\	.	.	4g/	.	4ee-\	.	4E-\	-son	4B-\	.	4g\	-ſon	4ee-\	-son	4ee-\	4gg\
2r	.	.	4r	.	4r	.	4r	.	4r	.	4r	.	4r	.	(8gg\L	8bb-\L
.	.	.	.	.	.	.	.	.	.	.	.	.	.	.	8ee-\J)	8gg\J
.	.	.	2r	.	2r	.	2r	.	2r	.	2r	.	2r	.	(8dd\L	8ff\L
.	.	.	.	.	.	.	.	.	.	.	.	.	.	.	8ee-\	8gg\
4r	.	.	.	.	.	.	.	.	.	.	.	.	.	.	8ff\	8aa-\
.	.	.	.	.	.	.	.	.	.	.	.	.	.	.	8ee-\J)	8ff\J
!	!	!	!	!	!LO:LB:g=original	!	!	!	!	!	!	!	!	!	!	!
=85	=85	=85	=85	=85	=85	=85	=85	=85	=85	=85	=85	=85	=85	=85	=85	=85
4r	.	.	4r	.	4r	.	4r	.	4r	.	4r	.	4r	.	4ee-\	4gg\
*	*	*	*	*	*	*	*	*ij	*	*	*	*	*	*	*	*
4c\	.	.	4ee-\	.	4gg\	.	4c\	e-	4c\	e-	4g\	e-	4ee-\	e-	4ee-\	4gg\
4A-\	.	.	4ff\	.	4aa-\	.	4A-\	-le-	4c\	-le-	4a-\	-le-	4ff\	-lei-	4ff\	4aa-\
4B-\	.	.	4dd\	.	4ff\ 4b-\	.	4B-\	-i	4c\	-i-	4f\	-i-	4dd\	-i-	4dd\	4ff\
!	!	!	!	!	!	!	!	!	!	!	!	!	!	!	!	!LO:LB:g=original
=86	=86	=86	=86	=86	=86	=86	=86	=86	=86	=86	=86	=86	=86	=86	=86	=86
!	!	!	!	!	!	!	!	!	!	!	!	!	!	!	!LO:TX:t=P:problem=takt 86-87 zapisany repetycją	!
4E-\	.	.	4ee-\ 4b-\	.	4gg/ 4b-/ 4e-/	.	4E-\	-son	4B-\	-son	4g\	-ſon	4ee-\	-son	4ee-\yy	4gg\
*	*	*	*	*	*	*	*	*Xij	*	*	*	*	*	*	*	*
2r	.	.	4r	.	4r	.	4r	.	4r	.	4r	.	4r	.	(y8gg\Lyy	8bb-\L
.	.	.	.	.	.	.	.	.	.	.	.	.	.	.	8ee-\J)yy	8gg\J
.	.	.	2r	.	2r	.	2r	.	2r	.	2r	.	2r	.	(y8dd\Lyy	8ff\L
.	.	.	.	.	.	.	.	.	.	.	.	.	.	.	8ee-\yy	8gg\
4r	.	.	.	.	.	.	.	.	.	.	.	.	.	.	8ff\yy	8aa-\
.	.	.	.	.	.	.	.	.	.	.	.	.	.	.	8ee-\J)yy	8ff\J
!LO:LB:g=original	!	!	!	!	!	!	!	!	!LO:LB:g=original	!	!	!	!	!	!	!
=87	=87	=87	=87	=87	=87	=87	=87	=87	=87	=87	=87	=87	=87	=87	=87	=87
4r	.	.	4r	.	4r	.	4r	.	4r	.	4r	.	4r	.	4ee-\yy	4gg\
!	!	!	!	!	!	!	!	!	!	!	!	!	!LO:TX:t=P:problem=łamanie linii w takcie	!	!	!
4c\	.	.	4ee-\	.	4gg\	.	4c\	e-	4c\	e-	4g\	e-	4ee-\	e-	4ee-\yy	4gg\
!	!	!	!	!	!	!	!	!	!	!	!	!	!LO:LB:g=original	!	!	!
4A-\	.	.	4ff\	.	4aa-\	.	4A-\	-le-	4c\	-le-	4a-\	-le-	4ff\	-le-	4ff\yy	4aa-\
4B-\	.	.	4dd\	.	4ff\ 4b-\	.	4B-\	-i-	4c\	-i-	4f\	-i-	4dd\	-i-	4dd\yy	4ff\
=88	=88	=88	=88	=88	=88	=88	=88	=88	=88	=88	=88	=88	=88	=88	=88	=88
4E-\	.	.	4ee-/ 4g/	.	4gg\ 4b-\ 4e-\	.	4E-\	-son	4B-\	-son	4g\	-ſon	4ee-\	-son	4ee-\	4gg\
2r	.	.	8ee-\L	.	8gg\L	.	4r	.	4r	.	4r	.	4r	.	4r	4r
.	.	.	8gg\J	.	8bb-\J	.	.	.	.	.	.	.	.	.	.	.
.	.	.	4ee-\ 4g\	.	4gg\ 4b-\ 4e-\	.	2r	.	2r	.	2r	.	2r	.	4ee-\	4gg\
4E-\	.	.	8ee-\L	.	8gg\L	.	.	.	.	.	.	.	.	.	4r	4r
.	.	.	8gg\J	.	8bb-\J	.	.	.	.	.	.	.	.	.	.	.
=89	=89	=89	=89	=89	=89	=89	=89	=89	=89	=89	=89	=89	=89	=89	=89	=89
!	!	!	!	!	!	!	!LO:TX:a:t=1	!	!LO:TX:a:t=1.	!	!LO:TX:a:t=1.	!	!LO:TX:a:t=1.	!	!	!
4E-\	.	.	4ee-\ 4g\	.	4gg\ 4b-\ 4e-\	.	1r	.	1r	.	1r	.	1r	.	4ee-\	4gg\
4E-\	.	.	4ee-\ 4g\	.	4gg\ 4b-\ 4e-\	.	.	.	.	.	.	.	.	.	4ee-\	4gg\
4E-\	.	.	4ee-\ 4g\	.	4gg\ 4b-\ 4e-\	.	.	.	.	.	.	.	.	.	4ee-\	4gg\
!	!	!	!LO:TX:b:t=Verte Gloria	!	!	!	!	!	!	!	!	!	!	!	!	!
4r	.	.	4r	.	4r	.	.	.	.	.	.	.	.	.	4r	4r
==	==	==	==	==	==	==	==	==	==	==	==	==	==	==	==	==
*-	*-	*-	*-	*-	*-	*-	*-	*-	*-	*-	*-	*-	*-	*-	*-	*-
!!!system-decoration: [(s1,s2)][(s3,s4,s5,s6)][(s7,s8)][(s9)]
!!!RDF**dynam: p = p.
!!!RDF**kern: > = above
!!!RDF**kern: < = below
!!!RDF**kern: | = vertical stroke
!!!ENC: Anastazja Marusiak
!!!END: 2020-07-16
!!!EED: Andrzej Borzym
!!!EEV: 2022-01-15
!!!YEC: Copyright 2022 Narodowy Instytut Fryderyka Chopina (https://polishscores.org)
!!!YEM: License CC-BY-4.0 (https://creativecommons.org/licenses/by/4.0)
